;FLAVOR:UltiGCode
;TIME:3251
;MATERIAL:7502
;MATERIAL2:0
;NOZZLE_DIAMETER:0.4
;Generated with Cura_SteamEngine 2.3.1

M107
G0 X10.0 Y90.0 Z0.0
G0 F0 X10.0 Y90.0 Z5.3
G0 F0 X10.0 Y90.0 Z5.3
G0 F0 X10.0 Y90.0 Z0.2999999999999998
G1 F1500 X10.0 Y90.0 Z0.2999999999999998 E0.06999999999999999
G1 F1500 X30.0 Y90.0 Z0.2999999999999998 E2.07
G1 F1500 X30.0 Y90.7 Z0.2999999999999998 E2.1399999999999997
G1 F1500 X10.0 Y90.7 Z0.2999999999999998 E4.14
G1 F1500 X10.0 Y91.4 Z0.2999999999999998 E4.21
G1 F1500 X30.0 Y91.4 Z0.2999999999999998 E6.21
G1 F1500 X30.0 Y92.10000000000001 Z0.2999999999999998 E6.28
G1 F1500 X10.0 Y92.10000000000001 Z0.2999999999999998 E8.280000000000001
G1 F1500 X10.0 Y92.80000000000001 Z0.2999999999999998 E8.350000000000001
G1 F1500 X30.0 Y92.80000000000001 Z0.2999999999999998 E10.350000000000001
G1 F1500 X30.0 Y93.50000000000001 Z0.2999999999999998 E10.420000000000002
G1 F1500 X10.0 Y93.50000000000001 Z0.2999999999999998 E12.420000000000002
G1 F1500 X10.0 Y94.20000000000002 Z0.2999999999999998 E12.490000000000002
G1 F1500 X30.0 Y94.20000000000002 Z0.2999999999999998 E14.490000000000002
G1 F1500 X30.0 Y94.90000000000002 Z0.2999999999999998 E14.560000000000002
G1 F1500 X10.0 Y94.90000000000002 Z0.2999999999999998 E16.560000000000002
G1 F1500 X10.0 Y95.60000000000002 Z0.2999999999999998 E16.630000000000003
G1 F1500 X30.0 Y95.60000000000002 Z0.2999999999999998 E18.630000000000003
G1 F1500 X30.0 Y96.30000000000003 Z0.2999999999999998 E18.700000000000003
G1 F1500 X10.0 Y96.30000000000003 Z0.2999999999999998 E20.700000000000003
G1 F1500 X10.0 Y97.00000000000003 Z0.2999999999999998 E20.770000000000003
G1 F1500 X30.0 Y97.00000000000003 Z0.2999999999999998 E22.770000000000003
G1 F1500 X30.0 Y97.70000000000003 Z0.2999999999999998 E22.840000000000003
G1 F1500 X10.0 Y97.70000000000003 Z0.2999999999999998 E24.840000000000003
G1 F1500 X10.0 Y98.40000000000003 Z0.2999999999999998 E24.910000000000004
G1 F1500 X30.0 Y98.40000000000003 Z0.2999999999999998 E26.910000000000004
G1 F1500 X30.0 Y99.10000000000004 Z0.2999999999999998 E26.980000000000004
G1 F1500 X10.0 Y99.10000000000004 Z0.2999999999999998 E28.980000000000004
G1 F1500 X10.0 Y99.80000000000004 Z0.2999999999999998 E29.050000000000004
G1 F1500 X30.0 Y99.80000000000004 Z0.2999999999999998 E31.050000000000004
G1 F1500 X30.0 Y100.50000000000004 Z0.2999999999999998 E31.120000000000005
G1 F1500 X10.0 Y100.50000000000004 Z0.2999999999999998 E33.120000000000005
G1 F1500 X10.0 Y101.20000000000005 Z0.2999999999999998 E33.190000000000005
G1 F1500 X30.0 Y101.20000000000005 Z0.2999999999999998 E35.190000000000005
G1 F1500 X30.0 Y101.90000000000005 Z0.2999999999999998 E35.260000000000005
G1 F1500 X10.0 Y101.90000000000005 Z0.2999999999999998 E37.260000000000005
G1 F1500 X10.0 Y102.60000000000005 Z0.2999999999999998 E37.330000000000005
G1 F1500 X30.0 Y102.60000000000005 Z0.2999999999999998 E39.330000000000005
G1 F1500 X30.0 Y103.30000000000005 Z0.2999999999999998 E39.400000000000006
G1 F1500 X10.0 Y103.30000000000005 Z0.2999999999999998 E41.400000000000006
G1 F1500 X10.0 Y104.00000000000006 Z0.2999999999999998 E41.470000000000006
G1 F1500 X30.0 Y104.00000000000006 Z0.2999999999999998 E43.470000000000006
G1 F1500 X30.0 Y104.70000000000006 Z0.2999999999999998 E43.540000000000006
G1 F1500 X10.0 Y104.70000000000006 Z0.2999999999999998 E45.540000000000006
G1 F1500 X10.0 Y105.40000000000006 Z0.2999999999999998 E45.61000000000001
G1 F1500 X30.0 Y105.40000000000006 Z0.2999999999999998 E47.61000000000001
G1 F1500 X30.0 Y106.10000000000007 Z0.2999999999999998 E47.68000000000001
G1 F1500 X10.0 Y106.10000000000007 Z0.2999999999999998 E49.68000000000001
G1 F1500 X10.0 Y106.80000000000007 Z0.2999999999999998 E49.75000000000001
G1 F1500 X30.0 Y106.80000000000007 Z0.2999999999999998 E51.75000000000001
G1 F1500 X30.0 Y107.50000000000007 Z0.2999999999999998 E51.82000000000001
G1 F1500 X10.0 Y107.50000000000007 Z0.2999999999999998 E53.82000000000001
G1 F1500 X10.0 Y108.20000000000007 Z0.2999999999999998 E53.89000000000001
G1 F1500 X30.0 Y108.20000000000007 Z0.2999999999999998 E55.89000000000001
G1 F1500 X30.0 Y108.90000000000008 Z0.2999999999999998 E55.96000000000001
G1 F1500 X10.0 Y108.90000000000008 Z0.2999999999999998 E57.96000000000001
G1 F1500 X10.0 Y109.60000000000008 Z0.2999999999999998 E58.03000000000001
G1 F1500 X30.0 Y109.60000000000008 Z0.2999999999999998 E60.03000000000001
G1 F1500 X30.0 Y110.30000000000008 Z0.2999999999999998 E60.10000000000001
G1 F1500 X10.0 Y110.30000000000008 Z0.2999999999999998 E62.10000000000001
G1 F1500 X10.0 Y111.00000000000009 Z0.2999999999999998 E62.17000000000001
G1 F1500 X30.0 Y111.00000000000009 Z0.2999999999999998 E64.17000000000002
G1 F1500 X30.0 Y111.70000000000009 Z0.2999999999999998 E64.24000000000001
G1 F1500 X10.0 Y111.70000000000009 Z0.2999999999999998 E66.24000000000001
G1 F1500 X10.0 Y112.40000000000009 Z0.2999999999999998 E66.31
G1 F1500 X30.0 Y112.40000000000009 Z0.2999999999999998 E68.31
G1 F1500 X30.0 Y113.1000000000001 Z0.2999999999999998 E68.38
G1 F1500 X10.0 Y113.1000000000001 Z0.2999999999999998 E70.38
G1 F1500 X10.0 Y113.8000000000001 Z0.2999999999999998 E70.44999999999999
G1 F1500 X30.0 Y113.8000000000001 Z0.2999999999999998 E72.44999999999999
G1 F1500 X30.0 Y114.5000000000001 Z0.2999999999999998 E72.51999999999998
G1 F1500 X10.0 Y114.5000000000001 Z0.2999999999999998 E74.51999999999998
G1 F1500 X10.0 Y115.2000000000001 Z0.2999999999999998 E74.58999999999997
G1 F1500 X30.0 Y115.2000000000001 Z0.2999999999999998 E76.58999999999997
G1 F1500 X30.0 Y115.9000000000001 Z0.2999999999999998 E76.65999999999997
G1 F1500 X10.0 Y115.9000000000001 Z0.2999999999999998 E78.65999999999997
G1 F1500 X10.0 Y116.60000000000011 Z0.2999999999999998 E78.72999999999996
G1 F1500 X30.0 Y116.60000000000011 Z0.2999999999999998 E80.72999999999996
G1 F1500 X30.0 Y117.30000000000011 Z0.2999999999999998 E80.79999999999995
G1 F1500 X10.0 Y117.30000000000011 Z0.2999999999999998 E82.79999999999995
G1 F1500 X10.0 Y118.00000000000011 Z0.2999999999999998 E82.86999999999995
G1 F1500 X30.0 Y118.00000000000011 Z0.2999999999999998 E84.86999999999995
G1 F1500 X30.0 Y118.70000000000012 Z0.2999999999999998 E84.93999999999994
G1 F1500 X10.0 Y118.70000000000012 Z0.2999999999999998 E86.93999999999994
G1 F1500 X10.0 Y119.40000000000012 Z0.2999999999999998 E87.00999999999993
G1 F1500 X30.0 Y119.40000000000012 Z0.2999999999999998 E89.00999999999993
G1 F1500 X30.0 Y120.10000000000012 Z0.2999999999999998 E89.07999999999993
G1 F1500 X10.0 Y120.10000000000012 Z0.2999999999999998 E91.07999999999993
G1 F1500 X10.0 Y120.80000000000013 Z0.2999999999999998 E91.14999999999992
G1 F1500 X30.0 Y120.80000000000013 Z0.2999999999999998 E93.14999999999992
G1 F1500 X30.0 Y121.50000000000013 Z0.2999999999999998 E93.21999999999991
G1 F1500 X10.0 Y121.50000000000013 Z0.2999999999999998 E95.21999999999991
G1 F1500 X10.0 Y122.20000000000013 Z0.2999999999999998 E95.2899999999999
G1 F1500 X30.0 Y122.20000000000013 Z0.2999999999999998 E97.2899999999999
G1 F1500 X30.0 Y122.90000000000013 Z0.2999999999999998 E97.3599999999999
G1 F1500 X10.0 Y122.90000000000013 Z0.2999999999999998 E99.3599999999999
G1 F1500 X10.0 Y123.60000000000014 Z0.2999999999999998 E99.4299999999999
G1 F1500 X30.0 Y123.60000000000014 Z0.2999999999999998 E101.4299999999999
G1 F1500 X30.0 Y124.30000000000014 Z0.2999999999999998 E101.49999999999989
G1 F1500 X10.0 Y124.30000000000014 Z0.2999999999999998 E103.49999999999989
G1 F1500 X10.0 Y125.00000000000014 Z0.2999999999999998 E103.56999999999988
G1 F1500 X30.0 Y125.00000000000014 Z0.2999999999999998 E105.56999999999988
G1 F1500 X30.0 Y125.70000000000014 Z0.2999999999999998 E105.63999999999987
G1 F1500 X10.0 Y125.70000000000014 Z0.2999999999999998 E107.63999999999987
G1 F1500 X10.0 Y126.40000000000015 Z0.2999999999999998 E107.70999999999987
G1 F1500 X30.0 Y126.40000000000015 Z0.2999999999999998 E109.70999999999987
G1 F1500 X30.0 Y127.10000000000015 Z0.2999999999999998 E109.77999999999986
G1 F1500 X10.0 Y127.10000000000015 Z0.2999999999999998 E111.77999999999986
G1 F1500 X10.0 Y127.80000000000015 Z0.2999999999999998 E111.84999999999985
G1 F1500 X30.0 Y127.80000000000015 Z0.2999999999999998 E113.84999999999985
G1 F1500 X30.0 Y128.50000000000014 Z0.2999999999999998 E113.91999999999985
G1 F1500 X10.0 Y128.50000000000014 Z0.2999999999999998 E115.91999999999985
G1 F1500 X10.0 Y129.20000000000013 Z0.2999999999999998 E115.98999999999984
G1 F1500 X30.0 Y129.20000000000013 Z0.2999999999999998 E117.98999999999984
G1 F1500 X30.0 Y129.90000000000012 Z0.2999999999999998 E118.05999999999983
G1 F1500 X10.0 Y129.90000000000012 Z0.2999999999999998 E120.05999999999983
G1 F1500 X10.0 Y130.6000000000001 Z0.2999999999999998 E120.12999999999982
G1 F1500 X30.0 Y130.6000000000001 Z0.2999999999999998 E122.12999999999982
G1 F1500 X30.0 Y131.3000000000001 Z0.2999999999999998 E122.19999999999982
G1 F1500 X10.0 Y131.3000000000001 Z0.2999999999999998 E124.19999999999982
G1 F1500 X10.0 Y132.00000000000009 Z0.2999999999999998 E124.26999999999981
G1 F1500 X30.0 Y132.00000000000009 Z0.2999999999999998 E126.26999999999981
G1 F1500 X30.0 Y132.70000000000007 Z0.2999999999999998 E126.3399999999998
G1 F1500 X10.0 Y132.70000000000007 Z0.2999999999999998 E128.3399999999998
G1 F1500 X10.0 Y133.40000000000006 Z0.2999999999999998 E128.4099999999998
G1 F1500 X30.0 Y133.40000000000006 Z0.2999999999999998 E130.4099999999998
G1 F1500 X30.0 Y134.10000000000005 Z0.2999999999999998 E130.4799999999998
G1 F1500 X10.0 Y134.10000000000005 Z0.2999999999999998 E132.4799999999998
G1 F1500 X10.0 Y134.80000000000004 Z0.2999999999999998 E132.54999999999978
G1 F1500 X30.0 Y134.80000000000004 Z0.2999999999999998 E134.54999999999978
G1 F1500 X30.0 Y135.50000000000003 Z0.2999999999999998 E134.61999999999978
G1 F1500 X10.0 Y135.50000000000003 Z0.2999999999999998 E136.61999999999978
G1 F1500 X10.0 Y136.20000000000002 Z0.2999999999999998 E136.68999999999977
G1 F1500 X30.0 Y136.20000000000002 Z0.2999999999999998 E138.68999999999977
G1 F1500 X30.0 Y136.9 Z0.2999999999999998 E138.75999999999976
G1 F1500 X10.0 Y136.9 Z0.2999999999999998 E140.75999999999976
G1 F1500 X10.0 Y137.6 Z0.2999999999999998 E140.82999999999976
G1 F1500 X30.0 Y137.6 Z0.2999999999999998 E142.82999999999976
G1 F1500 X30.0 Y138.29999999999998 Z0.2999999999999998 E142.89999999999975
G1 F1500 X10.0 Y138.29999999999998 Z0.2999999999999998 E144.89999999999975
G1 F1500 X10.0 Y138.99999999999997 Z0.2999999999999998 E144.96999999999974
G1 F1500 X30.0 Y138.99999999999997 Z0.2999999999999998 E146.96999999999974
G1 F1500 X30.0 Y139.69999999999996 Z0.2999999999999998 E147.03999999999974
G1 F1500 X10.0 Y139.69999999999996 Z0.2999999999999998 E149.03999999999974
G0 F0 X10.0 Y140.39999999999995 Z5.8
G0 F0 X10.0 Y90.0 Z5.8
G0 F0 X10.0 Y90.0 Z0.7999999999999998
G1 F1500 X10.0 Y90.0 Z0.7999999999999998 E149.10999999999973
G1 F1500 X30.0 Y90.0 Z0.7999999999999998 E151.10999999999973
G1 F1500 X30.0 Y90.7 Z0.7999999999999998 E151.17999999999972
G1 F1500 X10.0 Y90.7 Z0.7999999999999998 E153.17999999999972
G1 F1500 X10.0 Y91.4 Z0.7999999999999998 E153.24999999999972
G1 F1500 X30.0 Y91.4 Z0.7999999999999998 E155.24999999999972
G1 F1500 X30.0 Y92.10000000000001 Z0.7999999999999998 E155.3199999999997
G1 F1500 X10.0 Y92.10000000000001 Z0.7999999999999998 E157.3199999999997
G1 F1500 X10.0 Y92.80000000000001 Z0.7999999999999998 E157.3899999999997
G1 F1500 X30.0 Y92.80000000000001 Z0.7999999999999998 E159.3899999999997
G1 F1500 X30.0 Y93.50000000000001 Z0.7999999999999998 E159.4599999999997
G1 F1500 X10.0 Y93.50000000000001 Z0.7999999999999998 E161.4599999999997
G1 F1500 X10.0 Y94.20000000000002 Z0.7999999999999998 E161.5299999999997
G1 F1500 X30.0 Y94.20000000000002 Z0.7999999999999998 E163.5299999999997
G1 F1500 X30.0 Y94.90000000000002 Z0.7999999999999998 E163.59999999999968
G1 F1500 X10.0 Y94.90000000000002 Z0.7999999999999998 E165.59999999999968
G1 F1500 X10.0 Y95.60000000000002 Z0.7999999999999998 E165.66999999999967
G1 F1500 X30.0 Y95.60000000000002 Z0.7999999999999998 E167.66999999999967
G1 F1500 X30.0 Y96.30000000000003 Z0.7999999999999998 E167.73999999999967
G1 F1500 X10.0 Y96.30000000000003 Z0.7999999999999998 E169.73999999999967
G1 F1500 X10.0 Y97.00000000000003 Z0.7999999999999998 E169.80999999999966
G1 F1500 X30.0 Y97.00000000000003 Z0.7999999999999998 E171.80999999999966
G1 F1500 X30.0 Y97.70000000000003 Z0.7999999999999998 E171.87999999999965
G1 F1500 X10.0 Y97.70000000000003 Z0.7999999999999998 E173.87999999999965
G1 F1500 X10.0 Y98.40000000000003 Z0.7999999999999998 E173.94999999999965
G1 F1500 X30.0 Y98.40000000000003 Z0.7999999999999998 E175.94999999999965
G1 F1500 X30.0 Y99.10000000000004 Z0.7999999999999998 E176.01999999999964
G1 F1500 X10.0 Y99.10000000000004 Z0.7999999999999998 E178.01999999999964
G1 F1500 X10.0 Y99.80000000000004 Z0.7999999999999998 E178.08999999999963
G1 F1500 X30.0 Y99.80000000000004 Z0.7999999999999998 E180.08999999999963
G1 F1500 X30.0 Y100.50000000000004 Z0.7999999999999998 E180.15999999999963
G1 F1500 X10.0 Y100.50000000000004 Z0.7999999999999998 E182.15999999999963
G1 F1500 X10.0 Y101.20000000000005 Z0.7999999999999998 E182.22999999999962
G1 F1500 X30.0 Y101.20000000000005 Z0.7999999999999998 E184.22999999999962
G1 F1500 X30.0 Y101.90000000000005 Z0.7999999999999998 E184.2999999999996
G1 F1500 X10.0 Y101.90000000000005 Z0.7999999999999998 E186.2999999999996
G1 F1500 X10.0 Y102.60000000000005 Z0.7999999999999998 E186.3699999999996
G1 F1500 X30.0 Y102.60000000000005 Z0.7999999999999998 E188.3699999999996
G1 F1500 X30.0 Y103.30000000000005 Z0.7999999999999998 E188.4399999999996
G1 F1500 X10.0 Y103.30000000000005 Z0.7999999999999998 E190.4399999999996
G1 F1500 X10.0 Y104.00000000000006 Z0.7999999999999998 E190.5099999999996
G1 F1500 X30.0 Y104.00000000000006 Z0.7999999999999998 E192.5099999999996
G1 F1500 X30.0 Y104.70000000000006 Z0.7999999999999998 E192.5799999999996
G1 F1500 X10.0 Y104.70000000000006 Z0.7999999999999998 E194.5799999999996
G1 F1500 X10.0 Y105.40000000000006 Z0.7999999999999998 E194.64999999999958
G1 F1500 X30.0 Y105.40000000000006 Z0.7999999999999998 E196.64999999999958
G1 F1500 X30.0 Y106.10000000000007 Z0.7999999999999998 E196.71999999999957
G1 F1500 X10.0 Y106.10000000000007 Z0.7999999999999998 E198.71999999999957
G1 F1500 X10.0 Y106.80000000000007 Z0.7999999999999998 E198.78999999999957
G1 F1500 X30.0 Y106.80000000000007 Z0.7999999999999998 E200.78999999999957
G1 F1500 X30.0 Y107.50000000000007 Z0.7999999999999998 E200.85999999999956
G1 F1500 X10.0 Y107.50000000000007 Z0.7999999999999998 E202.85999999999956
G1 F1500 X10.0 Y108.20000000000007 Z0.7999999999999998 E202.92999999999955
G1 F1500 X30.0 Y108.20000000000007 Z0.7999999999999998 E204.92999999999955
G1 F1500 X30.0 Y108.90000000000008 Z0.7999999999999998 E204.99999999999955
G1 F1500 X10.0 Y108.90000000000008 Z0.7999999999999998 E206.99999999999955
G1 F1500 X10.0 Y109.60000000000008 Z0.7999999999999998 E207.06999999999954
G1 F1500 X30.0 Y109.60000000000008 Z0.7999999999999998 E209.06999999999954
G1 F1500 X30.0 Y110.30000000000008 Z0.7999999999999998 E209.13999999999953
G1 F1500 X10.0 Y110.30000000000008 Z0.7999999999999998 E211.13999999999953
G1 F1500 X10.0 Y111.00000000000009 Z0.7999999999999998 E211.20999999999952
G1 F1500 X30.0 Y111.00000000000009 Z0.7999999999999998 E213.20999999999952
G1 F1500 X30.0 Y111.70000000000009 Z0.7999999999999998 E213.27999999999952
G1 F1500 X10.0 Y111.70000000000009 Z0.7999999999999998 E215.27999999999952
G1 F1500 X10.0 Y112.40000000000009 Z0.7999999999999998 E215.3499999999995
G1 F1500 X30.0 Y112.40000000000009 Z0.7999999999999998 E217.3499999999995
G1 F1500 X30.0 Y113.1000000000001 Z0.7999999999999998 E217.4199999999995
G1 F1500 X10.0 Y113.1000000000001 Z0.7999999999999998 E219.4199999999995
