;Generated by Cura LulzBot Edition GCodeWriter Version: 3.2.21
;FLAVOR:Marlin
;TIME:30
;Filament used: 0.0109205m
;Layer height: 0.25
;Generated with Cura_SteamEngine 3.2.21
M82 ;absolute extrusion mode
;This G-Code has been generated specifically for the LulzBot Mini with standard extruder
M75 ; Start GLCD Timer
G26 ; clear potential 'probe fail' condition
G21 ; set units to Millimetres
M107 ; disable fans
G90 ; absolute positioning
M82 ; set extruder to absolute mode
G92 E0 ; set extruder position to 0
M140 S60 ; start bed heating up
G28 ; home all axes
G0 X0 Y187 Z156 F200 ; move away from endstops
M109 R140 ;
G1 E-30 F75 ; retract filament
M109 R140 ; wait for extruder to reach wiping temp
G1 X45 Y173 F11520 ; move above wiper pad
G1 Z0 F1200 ; push nozzle into wiper
G1 X42 Y173 Z-.5 F4000             ; wiping
G1 X52 Y171 Z-.5 F4000             ; wiping
G1 X42 Y173 Z0 F4000               ; wiping
G1 X52 Y171 F4000                  ; wiping
G1 X42 Y173 F4000                  ; wiping
G1 X52 Y171 F4000                  ; wiping
G1 X42 Y173 F4000                  ; wiping
G1 X52 Y171 F4000                  ; wiping
G1 X57 Y173 F4000                  ; wiping
G1 X77 Y171 F4000                  ; wiping
G1 X57 Y173 F4000                  ; wiping
G1 X77 Y171 F4000                  ; wiping
G1 X57 Y173 F4000                  ; wiping
G1 X87 Y171 F4000                  ; wiping
G1 X77 Y173 F4000                  ; wiping
G1 X97 Y171 F4000                  ; wiping
G1 X77 Y173 F4000                  ; wiping
G1 X97 Y171 F4000                  ; wiping
G1 X77 Y173 F4000                  ; wiping
G1 X97 Y171 F4000                  ; wiping
G1 X107 Y173 F4000                 ; wiping
G1 X97 Y171 F4000                  ; wiping
G1 X107 Y173 F4000                 ; wiping
G1 X97 Y171 F4000                  ; wiping
G1 X107 Y173 F4000                 ; wiping
G1 X112 Y171 Z-0.5 F1000           ; wiping
G1 Z10 ; raise extruder
G28 X0 Y0 ; home X and Y
G0 X0 Y187 F200 ; move away from endstops
M109 R140 ; wait for extruder to reach probe temp
M204 S300 ; set probing acceleration
G29 ; start auto-leveling sequence
M204 S2000 ; restore standard acceleration
G28 X0 Y0 ; re-home to account for build variance of earlier mini builds
G0 X0 Y187 F200 ; move away from endstops
G0 Y152 F4000 ; move in front of wiper pad
G4 S1 ; pause
M400 ; wait for moves to finish
M117 Heating... ; progress indicator message on LCD
M190 S20 ; wait for bed to reach printing temp
M109 R245 ; wait for extruder to reach printing temp

G1 Z2 E0 F75 ; prime tiny bit of filament into the nozzle
M117 Mini Printing... ; progress indicator message on LCD


M107
G10
G1 F0 X90.0 Y10.0 Z5.5
G1 F0 X90.0 Y10.0 Z5.5
G1 F0 X90.0 Y10.0 Z0.5
G11
G1 F1200 X90.0 Y10.0 Z0.5 E0.025
G1 F1200 X90.0 Y25.0 Z0.5 E0.775
G1 F1200 X90.5 Y25.0 Z0.5 E0.8
G1 F1200 X90.5 Y10.0 Z0.5 E1.55
G1 F1200 X91.0 Y10.0 Z0.5 E1.575
G1 F1200 X91.0 Y25.0 Z0.5 E2.325
G1 F1200 X91.5 Y25.0 Z0.5 E2.35
G1 F1200 X91.5 Y10.0 Z0.5 E3.1
G1 F1200 X92.0 Y10.0 Z0.5 E3.125
G1 F1200 X92.0 Y25.0 Z0.5 E3.875
G1 F1200 X92.5 Y25.0 Z0.5 E3.9
G1 F1200 X92.5 Y10.0 Z0.5 E4.65
G1 F1200 X93.0 Y10.0 Z0.5 E4.675000000000001
G1 F1200 X93.0 Y25.0 Z0.5 E5.425000000000001
G1 F1200 X93.5 Y25.0 Z0.5 E5.450000000000001
G1 F1200 X93.5 Y10.0 Z0.5 E6.200000000000001
G1 F1200 X94.0 Y10.0 Z0.5 E6.225000000000001
G1 F1200 X94.0 Y25.0 Z0.5 E6.975000000000001
G1 F1200 X94.5 Y25.0 Z0.5 E7.000000000000002
G1 F1200 X94.5 Y10.0 Z0.5 E7.750000000000002
G1 F1200 X95.0 Y10.0 Z0.5 E7.775000000000002
G1 F1200 X95.0 Y25.0 Z0.5 E8.525000000000002
G1 F1200 X95.5 Y25.0 Z0.5 E8.550000000000002
G1 F1200 X95.5 Y10.0 Z0.5 E9.300000000000002
G1 F1200 X96.0 Y10.0 Z0.5 E9.325000000000003
G1 F1200 X96.0 Y25.0 Z0.5 E10.075000000000003
G1 F1200 X96.5 Y25.0 Z0.5 E10.100000000000003
G1 F1200 X96.5 Y10.0 Z0.5 E10.850000000000003
G1 F1200 X97.0 Y10.0 Z0.5 E10.875000000000004
G1 F1200 X97.0 Y25.0 Z0.5 E11.625000000000004
G1 F1200 X97.5 Y25.0 Z0.5 E11.650000000000004
G1 F1200 X97.5 Y10.0 Z0.5 E12.400000000000004
G1 F1200 X98.0 Y10.0 Z0.5 E12.425000000000004
G1 F1200 X98.0 Y25.0 Z0.5 E13.175000000000004
G1 F1200 X98.5 Y25.0 Z0.5 E13.200000000000005
G1 F1200 X98.5 Y10.0 Z0.5 E13.950000000000005
G1 F1200 X99.0 Y10.0 Z0.5 E13.975000000000005
G1 F1200 X99.0 Y25.0 Z0.5 E14.725000000000005
G1 F1200 X99.5 Y25.0 Z0.5 E14.750000000000005
G1 F1200 X99.5 Y10.0 Z0.5 E15.500000000000005
G1 F1200 X100.0 Y10.0 Z0.5 E15.525000000000006
G1 F1200 X100.0 Y25.0 Z0.5 E16.275000000000006
G1 F1200 X100.5 Y25.0 Z0.5 E16.300000000000004
G1 F1200 X100.5 Y10.0 Z0.5 E17.050000000000004
G1 F1200 X101.0 Y10.0 Z0.5 E17.075000000000003
G1 F1200 X101.0 Y25.0 Z0.5 E17.825000000000003
G1 F1200 X101.5 Y25.0 Z0.5 E17.85
G1 F1200 X101.5 Y10.0 Z0.5 E18.6
G1 F1200 X102.0 Y10.0 Z0.5 E18.625
G1 F1200 X102.0 Y25.0 Z0.5 E19.375
G1 F1200 X102.5 Y25.0 Z0.5 E19.4
G1 F1200 X102.5 Y10.0 Z0.5 E20.15
G1 F1200 X103.0 Y10.0 Z0.5 E20.174999999999997
G1 F1200 X103.0 Y25.0 Z0.5 E20.924999999999997
G1 F1200 X103.5 Y25.0 Z0.5 E20.949999999999996
G1 F1200 X103.5 Y10.0 Z0.5 E21.699999999999996
G1 F1200 X104.0 Y10.0 Z0.5 E21.724999999999994
G1 F1200 X104.0 Y25.0 Z0.5 E22.474999999999994
G1 F1200 X104.5 Y25.0 Z0.5 E22.499999999999993
G1 F1200 X104.5 Y10.0 Z0.5 E23.249999999999993
G1 F1200 X105.0 Y10.0 Z0.5 E23.27499999999999
G1 F1200 X105.0 Y25.0 Z0.5 E24.02499999999999
G1 F1200 X105.5 Y25.0 Z0.5 E24.04999999999999
G1 F1200 X105.5 Y10.0 Z0.5 E24.79999999999999
G1 F1200 X106.0 Y10.0 Z0.5 E24.82499999999999
G1 F1200 X106.0 Y25.0 Z0.5 E25.57499999999999
G1 F1200 X106.5 Y25.0 Z0.5 E25.599999999999987
G1 F1200 X106.5 Y10.0 Z0.5 E26.349999999999987
G1 F1200 X107.0 Y10.0 Z0.5 E26.374999999999986
G1 F1200 X107.0 Y25.0 Z0.5 E27.124999999999986
G1 F1200 X107.5 Y25.0 Z0.5 E27.149999999999984
G1 F1200 X107.5 Y10.0 Z0.5 E27.899999999999984
G1 F1200 X108.0 Y10.0 Z0.5 E27.924999999999983
G1 F1200 X108.0 Y25.0 Z0.5 E28.674999999999983
G1 F1200 X108.5 Y25.0 Z0.5 E28.69999999999998
G1 F1200 X108.5 Y10.0 Z0.5 E29.44999999999998
G1 F1200 X109.0 Y10.0 Z0.5 E29.47499999999998
G1 F1200 X109.0 Y25.0 Z0.5 E30.22499999999998
G1 F1200 X109.5 Y25.0 Z0.5 E30.24999999999998
G1 F1200 X109.5 Y10.0 Z0.5 E30.99999999999998
G1 F1200 X110.0 Y10.0 Z0.5 E31.024999999999977
G1 F1200 X110.0 Y25.0 Z0.5 E31.774999999999977
G1 F1200 X110.5 Y25.0 Z0.5 E31.799999999999976
G1 F1200 X110.5 Y10.0 Z0.5 E32.549999999999976
G1 F1200 X111.0 Y10.0 Z0.5 E32.574999999999974
G1 F1200 X111.0 Y25.0 Z0.5 E33.324999999999974
G1 F1200 X111.5 Y25.0 Z0.5 E33.34999999999997
G1 F1200 X111.5 Y10.0 Z0.5 E34.09999999999997
G1 F1200 X112.0 Y10.0 Z0.5 E34.12499999999997
G1 F1200 X112.0 Y25.0 Z0.5 E34.87499999999997
G1 F1200 X112.5 Y25.0 Z0.5 E34.89999999999997
G1 F1200 X112.5 Y10.0 Z0.5 E35.64999999999997
G1 F1200 X113.0 Y10.0 Z0.5 E35.67499999999997
G1 F1200 X113.0 Y25.0 Z0.5 E36.42499999999997
G1 F1200 X113.5 Y25.0 Z0.5 E36.44999999999997
G1 F1200 X113.5 Y10.0 Z0.5 E37.19999999999997
G1 F1200 X114.0 Y10.0 Z0.5 E37.224999999999966
G1 F1200 X114.0 Y25.0 Z0.5 E37.974999999999966
G1 F1200 X114.5 Y25.0 Z0.5 E37.999999999999964
G1 F1200 X114.5 Y10.0 Z0.5 E38.749999999999964
G1 F1200 X115.0 Y10.0 Z0.5 E38.77499999999996
G1 F1200 X115.0 Y25.0 Z0.5 E39.52499999999996
G1 F1200 X115.5 Y25.0 Z0.5 E39.54999999999996
G1 F1200 X115.5 Y10.0 Z0.5 E40.29999999999996
G1 F1200 X116.0 Y10.0 Z0.5 E40.32499999999996
G1 F1200 X116.0 Y25.0 Z0.5 E41.07499999999996
G1 F1200 X116.5 Y25.0 Z0.5 E41.09999999999996
G1 F1200 X116.5 Y10.0 Z0.5 E41.84999999999996
G1 F1200 X117.0 Y10.0 Z0.5 E41.87499999999996
G1 F1200 X117.0 Y25.0 Z0.5 E42.62499999999996
G1 F1200 X117.5 Y25.0 Z0.5 E42.649999999999956
G1 F1200 X117.5 Y10.0 Z0.5 E43.399999999999956
G1 F1200 X118.0 Y10.0 Z0.5 E43.424999999999955
G1 F1200 X118.0 Y25.0 Z0.5 E44.174999999999955
G1 F1200 X118.5 Y25.0 Z0.5 E44.19999999999995
G1 F1200 X118.5 Y10.0 Z0.5 E44.94999999999995
G1 F1200 X119.0 Y10.0 Z0.5 E44.97499999999995
G1 F1200 X119.0 Y25.0 Z0.5 E45.72499999999995
G1 F1200 X119.5 Y25.0 Z0.5 E45.74999999999995
G1 F1200 X119.5 Y10.0 Z0.5 E46.49999999999995
G1 F1200 X120.0 Y10.0 Z0.5 E46.52499999999995
G1 F1200 X120.0 Y25.0 Z0.5 E47.27499999999995
G10
G1 F0 X120.5 Y25.0 Z6.0
G1 F0 X90.0 Y25.0 Z6.0
G1 F0 X90.0 Y25.0 Z1.0
G11
G1 F1200 X90.0 Y25.0 Z1.0 E47.29999999999995
G1 F1200 X90.0 Y10.0 Z1.0 E48.04999999999995
G1 F1200 X90.5 Y10.0 Z1.0 E48.074999999999946
G1 F1200 X90.5 Y25.0 Z1.0 E48.824999999999946
G1 F1200 X91.0 Y25.0 Z1.0 E48.849999999999945
G1 F1200 X91.0 Y10.0 Z1.0 E49.599999999999945
G1 F1200 X91.5 Y10.0 Z1.0 E49.62499999999994
G1 F1200 X91.5 Y25.0 Z1.0 E50.37499999999994
G1 F1200 X92.0 Y25.0 Z1.0 E50.39999999999994
G1 F1200 X92.0 Y10.0 Z1.0 E51.14999999999994
G1 F1200 X92.5 Y10.0 Z1.0 E51.17499999999994
G1 F1200 X92.5 Y25.0 Z1.0 E51.92499999999994
G1 F1200 X93.0 Y25.0 Z1.0 E51.94999999999994
G1 F1200 X93.0 Y10.0 Z1.0 E52.69999999999994
G1 F1200 X93.5 Y10.0 Z1.0 E52.72499999999994
G1 F1200 X93.5 Y25.0 Z1.0 E53.47499999999994
G1 F1200 X94.0 Y25.0 Z1.0 E53.499999999999936
G1 F1200 X94.0 Y10.0 Z1.0 E54.249999999999936
G1 F1200 X94.5 Y10.0 Z1.0 E54.274999999999935
G1 F1200 X94.5 Y25.0 Z1.0 E55.024999999999935
G1 F1200 X95.0 Y25.0 Z1.0 E55.04999999999993
G1 F1200 X95.0 Y10.0 Z1.0 E55.79999999999993
G1 F1200 X95.5 Y10.0 Z1.0 E55.82499999999993
G1 F1200 X95.5 Y25.0 Z1.0 E56.57499999999993
G1 F1200 X96.0 Y25.0 Z1.0 E56.59999999999993
G1 F1200 X96.0 Y10.0 Z1.0 E57.34999999999993
G1 F1200 X96.5 Y10.0 Z1.0 E57.37499999999993
G1 F1200 X96.5 Y25.0 Z1.0 E58.12499999999993
G1 F1200 X97.0 Y25.0 Z1.0 E58.14999999999993
G1 F1200 X97.0 Y10.0 Z1.0 E58.89999999999993
G1 F1200 X97.5 Y10.0 Z1.0 E58.924999999999926
G1 F1200 X97.5 Y25.0 Z1.0 E59.674999999999926
G1 F1200 X98.0 Y25.0 Z1.0 E59.699999999999925
G1 F1200 X98.0 Y10.0 Z1.0 E60.449999999999925
G1 F1200 X98.5 Y10.0 Z1.0 E60.47499999999992
G1 F1200 X98.5 Y25.0 Z1.0 E61.22499999999992
G1 F1200 X99.0 Y25.0 Z1.0 E61.24999999999992
G1 F1200 X99.0 Y10.0 Z1.0 E61.99999999999992
G1 F1200 X99.5 Y10.0 Z1.0 E62.02499999999992
G1 F1200 X99.5 Y25.0 Z1.0 E62.77499999999992
G1 F1200 X100.0 Y25.0 Z1.0 E62.79999999999992
G1 F1200 X100.0 Y10.0 Z1.0 E63.54999999999992
G1 F1200 X100.5 Y10.0 Z1.0 E63.57499999999992
G1 F1200 X100.5 Y25.0 Z1.0 E64.32499999999992
G1 F1200 X101.0 Y25.0 Z1.0 E64.34999999999992
G1 F1200 X101.0 Y10.0 Z1.0 E65.09999999999992
G1 F1200 X101.5 Y10.0 Z1.0 E65.12499999999993
G1 F1200 X101.5 Y25.0 Z1.0 E65.87499999999993
G1 F1200 X102.0 Y25.0 Z1.0 E65.89999999999993
G1 F1200 X102.0 Y10.0 Z1.0 E66.64999999999993
G1 F1200 X102.5 Y10.0 Z1.0 E66.67499999999994
G1 F1200 X102.5 Y25.0 Z1.0 E67.42499999999994
G1 F1200 X103.0 Y25.0 Z1.0 E67.44999999999995
G1 F1200 X103.0 Y10.0 Z1.0 E68.19999999999995
G1 F1200 X103.5 Y10.0 Z1.0 E68.22499999999995
G1 F1200 X103.5 Y25.0 Z1.0 E68.97499999999995
G1 F1200 X104.0 Y25.0 Z1.0 E68.99999999999996
G1 F1200 X104.0 Y10.0 Z1.0 E69.74999999999996
G1 F1200 X104.5 Y10.0 Z1.0 E69.77499999999996
G1 F1200 X104.5 Y25.0 Z1.0 E70.52499999999996
G1 F1200 X105.0 Y25.0 Z1.0 E70.54999999999997
G1 F1200 X105.0 Y10.0 Z1.0 E71.29999999999997
G1 F1200 X105.5 Y10.0 Z1.0 E71.32499999999997
G1 F1200 X105.5 Y25.0 Z1.0 E72.07499999999997
G1 F1200 X106.0 Y25.0 Z1.0 E72.09999999999998
G1 F1200 X106.0 Y10.0 Z1.0 E72.84999999999998
G1 F1200 X106.5 Y10.0 Z1.0 E72.87499999999999
G1 F1200 X106.5 Y25.0 Z1.0 E73.62499999999999
G1 F1200 X107.0 Y25.0 Z1.0 E73.64999999999999
G1 F1200 X107.0 Y10.0 Z1.0 E74.39999999999999
G1 F1200 X107.5 Y10.0 Z1.0 E74.425
G1 F1200 X107.5 Y25.0 Z1.0 E75.175
G1 F1200 X108.0 Y25.0 Z1.0 E75.2
G1 F1200 X108.0 Y10.0 Z1.0 E75.95
G1 F1200 X108.5 Y10.0 Z1.0 E75.97500000000001
G1 F1200 X108.5 Y25.0 Z1.0 E76.72500000000001
G1 F1200 X109.0 Y25.0 Z1.0 E76.75000000000001
G1 F1200 X109.0 Y10.0 Z1.0 E77.50000000000001
G1 F1200 X109.5 Y10.0 Z1.0 E77.52500000000002
G1 F1200 X109.5 Y25.0 Z1.0 E78.27500000000002
G1 F1200 X110.0 Y25.0 Z1.0 E78.30000000000003
G1 F1200 X110.0 Y10.0 Z1.0 E79.05000000000003
G1 F1200 X110.5 Y10.0 Z1.0 E79.07500000000003
G1 F1200 X110.5 Y25.0 Z1.0 E79.82500000000003
G1 F1200 X111.0 Y25.0 Z1.0 E79.85000000000004
G1 F1200 X111.0 Y10.0 Z1.0 E80.60000000000004
G1 F1200 X111.5 Y10.0 Z1.0 E80.62500000000004
G1 F1200 X111.5 Y25.0 Z1.0 E81.37500000000004
G1 F1200 X112.0 Y25.0 Z1.0 E81.40000000000005
G1 F1200 X112.0 Y10.0 Z1.0 E82.15000000000005
G1 F1200 X112.5 Y10.0 Z1.0 E82.17500000000005
G1 F1200 X112.5 Y25.0 Z1.0 E82.92500000000005
G1 F1200 X113.0 Y25.0 Z1.0 E82.95000000000006
G1 F1200 X113.0 Y10.0 Z1.0 E83.70000000000006
G1 F1200 X113.5 Y10.0 Z1.0 E83.72500000000007
G1 F1200 X113.5 Y25.0 Z1.0 E84.47500000000007
G1 F1200 X114.0 Y25.0 Z1.0 E84.50000000000007
G1 F1200 X114.0 Y10.0 Z1.0 E85.25000000000007
G1 F1200 X114.5 Y10.0 Z1.0 E85.27500000000008
G1 F1200 X114.5 Y25.0 Z1.0 E86.02500000000008
G1 F1200 X115.0 Y25.0 Z1.0 E86.05000000000008
G1 F1200 X115.0 Y10.0 Z1.0 E86.80000000000008
G1 F1200 X115.5 Y10.0 Z1.0 E86.82500000000009
G1 F1200 X115.5 Y25.0 Z1.0 E87.57500000000009
G1 F1200 X116.0 Y25.0 Z1.0 E87.6000000000001
G1 F1200 X116.0 Y10.0 Z1.0 E88.3500000000001
G1 F1200 X116.5 Y10.0 Z1.0 E88.3750000000001
G1 F1200 X116.5 Y25.0 Z1.0 E89.1250000000001
G1 F1200 X117.0 Y25.0 Z1.0 E89.1500000000001
G1 F1200 X117.0 Y10.0 Z1.0 E89.9000000000001
G1 F1200 X117.5 Y10.0 Z1.0 E89.92500000000011
G1 F1200 X117.5 Y25.0 Z1.0 E90.67500000000011
G1 F1200 X118.0 Y25.0 Z1.0 E90.70000000000012
G1 F1200 X118.0 Y10.0 Z1.0 E91.45000000000012
G1 F1200 X118.5 Y10.0 Z1.0 E91.47500000000012
G1 F1200 X118.5 Y25.0 Z1.0 E92.22500000000012
G1 F1200 X119.0 Y25.0 Z1.0 E92.25000000000013
G1 F1200 X119.0 Y10.0 Z1.0 E93.00000000000013
G1 F1200 X119.5 Y10.0 Z1.0 E93.02500000000013
G1 F1200 X119.5 Y25.0 Z1.0 E93.77500000000013
G1 F1200 X120.0 Y25.0 Z1.0 E93.80000000000014
G1 F1200 X120.0 Y10.0 Z1.0 E94.55000000000014
G10
G1 F0 X120.5 Y10.0 Z6.5
G1 F0 X90.0 Y10.0 Z6.5
G1 F0 X90.0 Y10.0 Z1.5
G11
G1 F1200 X90.0 Y10.0 Z1.5 E94.57500000000014
G1 F1200 X90.0 Y25.0 Z1.5 E95.32500000000014
G1 F1200 X90.5 Y25.0 Z1.5 E95.35000000000015
G1 F1200 X90.5 Y10.0 Z1.5 E96.10000000000015
G1 F1200 X91.0 Y10.0 Z1.5 E96.12500000000016
G1 F1200 X91.0 Y25.0 Z1.5 E96.87500000000016
G1 F1200 X91.5 Y25.0 Z1.5 E96.90000000000016
G1 F1200 X91.5 Y10.0 Z1.5 E97.65000000000016
G1 F1200 X92.0 Y10.0 Z1.5 E97.67500000000017
G1 F1200 X92.0 Y25.0 Z1.5 E98.42500000000017
G1 F1200 X92.5 Y25.0 Z1.5 E98.45000000000017
G1 F1200 X92.5 Y10.0 Z1.5 E99.20000000000017
G1 F1200 X93.0 Y10.0 Z1.5 E99.22500000000018
G1 F1200 X93.0 Y25.0 Z1.5 E99.97500000000018
G1 F1200 X93.5 Y25.0 Z1.5 E100.00000000000018
G1 F1200 X93.5 Y10.0 Z1.5 E100.75000000000018
G1 F1200 X94.0 Y10.0 Z1.5 E100.77500000000019
G1 F1200 X94.0 Y25.0 Z1.5 E101.52500000000019
G1 F1200 X94.5 Y25.0 Z1.5 E101.5500000000002
G1 F1200 X94.5 Y10.0 Z1.5 E102.3000000000002
G1 F1200 X95.0 Y10.0 Z1.5 E102.3250000000002
G1 F1200 X95.0 Y25.0 Z1.5 E103.0750000000002
G1 F1200 X95.5 Y25.0 Z1.5 E103.10000000000021
G1 F1200 X95.5 Y10.0 Z1.5 E103.85000000000021
G1 F1200 X96.0 Y10.0 Z1.5 E103.87500000000021
G1 F1200 X96.0 Y25.0 Z1.5 E104.62500000000021
G1 F1200 X96.5 Y25.0 Z1.5 E104.65000000000022
G1 F1200 X96.5 Y10.0 Z1.5 E105.40000000000022
G1 F1200 X97.0 Y10.0 Z1.5 E105.42500000000022
G1 F1200 X97.0 Y25.0 Z1.5 E106.17500000000022
G1 F1200 X97.5 Y25.0 Z1.5 E106.20000000000023
G1 F1200 X97.5 Y10.0 Z1.5 E106.95000000000023
G1 F1200 X98.0 Y10.0 Z1.5 E106.97500000000024
G1 F1200 X98.0 Y25.0 Z1.5 E107.72500000000024
G1 F1200 X98.5 Y25.0 Z1.5 E107.75000000000024
G1 F1200 X98.5 Y10.0 Z1.5 E108.50000000000024
G1 F1200 X99.0 Y10.0 Z1.5 E108.52500000000025
G1 F1200 X99.0 Y25.0 Z1.5 E109.27500000000025
G1 F1200 X99.5 Y25.0 Z1.5 E109.30000000000025
G1 F1200 X99.5 Y10.0 Z1.5 E110.05000000000025
G1 F1200 X100.0 Y10.0 Z1.5 E110.07500000000026
G1 F1200 X100.0 Y25.0 Z1.5 E110.82500000000026
G1 F1200 X100.5 Y25.0 Z1.5 E110.85000000000026
G1 F1200 X100.5 Y10.0 Z1.5 E111.60000000000026
G1 F1200 X101.0 Y10.0 Z1.5 E111.62500000000027
G1 F1200 X101.0 Y25.0 Z1.5 E112.37500000000027
G1 F1200 X101.5 Y25.0 Z1.5 E112.40000000000028
