;FLAVOR:UltiGCode
;TIME:3251
;MATERIAL:7502
;MATERIAL2:0
;NOZZLE_DIAMETER:0.4
;Generated with Cura_SteamEngine 2.3.1


M106
G0 X10.0 Y90.0 Z0.0
G10
G0 F0 X10.0 Y90.0 Z5.3
G0 F0 X10.0 Y90.0 Z5.3
G0 F0 X10.0 Y90.0 Z0.2999999999999998
G11
G1 F1500 X10.0 Y90.0 Z0.2999999999999998 E0.05
G1 F1500 X30.0 Y90.0 Z0.2999999999999998 E2.05
G1 F1500 X30.0 Y90.5 Z0.2999999999999998 E2.0999999999999996
G1 F1500 X10.0 Y90.5 Z0.2999999999999998 E4.1
G1 F1500 X10.0 Y91.0 Z0.2999999999999998 E4.1499999999999995
G1 F1500 X30.0 Y91.0 Z0.2999999999999998 E6.1499999999999995
G1 F1500 X30.0 Y91.5 Z0.2999999999999998 E6.199999999999999
G1 F1500 X10.0 Y91.5 Z0.2999999999999998 E8.2
G1 F1500 X10.0 Y92.0 Z0.2999999999999998 E8.25
G1 F1500 X30.0 Y92.0 Z0.2999999999999998 E10.25
G1 F1500 X30.0 Y92.5 Z0.2999999999999998 E10.3
G1 F1500 X10.0 Y92.5 Z0.2999999999999998 E12.3
G1 F1500 X10.0 Y93.0 Z0.2999999999999998 E12.350000000000001
G1 F1500 X30.0 Y93.0 Z0.2999999999999998 E14.350000000000001
G1 F1500 X30.0 Y93.5 Z0.2999999999999998 E14.400000000000002
G1 F1500 X10.0 Y93.5 Z0.2999999999999998 E16.400000000000002
G1 F1500 X10.0 Y94.0 Z0.2999999999999998 E16.450000000000003
G1 F1500 X30.0 Y94.0 Z0.2999999999999998 E18.450000000000003
G1 F1500 X30.0 Y94.5 Z0.2999999999999998 E18.500000000000004
G1 F1500 X10.0 Y94.5 Z0.2999999999999998 E20.500000000000004
G1 F1500 X10.0 Y95.0 Z0.2999999999999998 E20.550000000000004
G1 F1500 X30.0 Y95.0 Z0.2999999999999998 E22.550000000000004
G1 F1500 X30.0 Y95.5 Z0.2999999999999998 E22.600000000000005
G1 F1500 X10.0 Y95.5 Z0.2999999999999998 E24.600000000000005
G1 F1500 X10.0 Y96.0 Z0.2999999999999998 E24.650000000000006
G1 F1500 X30.0 Y96.0 Z0.2999999999999998 E26.650000000000006
G1 F1500 X30.0 Y96.5 Z0.2999999999999998 E26.700000000000006
G1 F1500 X10.0 Y96.5 Z0.2999999999999998 E28.700000000000006
G1 F1500 X10.0 Y97.0 Z0.2999999999999998 E28.750000000000007
G1 F1500 X30.0 Y97.0 Z0.2999999999999998 E30.750000000000007
G1 F1500 X30.0 Y97.5 Z0.2999999999999998 E30.800000000000008
G1 F1500 X10.0 Y97.5 Z0.2999999999999998 E32.80000000000001
G1 F1500 X10.0 Y98.0 Z0.2999999999999998 E32.85000000000001
G1 F1500 X30.0 Y98.0 Z0.2999999999999998 E34.85000000000001
G1 F1500 X30.0 Y98.5 Z0.2999999999999998 E34.900000000000006
G1 F1500 X10.0 Y98.5 Z0.2999999999999998 E36.900000000000006
G1 F1500 X10.0 Y99.0 Z0.2999999999999998 E36.95
G1 F1500 X30.0 Y99.0 Z0.2999999999999998 E38.95
G1 F1500 X30.0 Y99.5 Z0.2999999999999998 E39.0
G1 F1500 X10.0 Y99.5 Z0.2999999999999998 E41.0
G1 F1500 X10.0 Y100.0 Z0.2999999999999998 E41.05
G1 F1500 X30.0 Y100.0 Z0.2999999999999998 E43.05
G1 F1500 X30.0 Y100.5 Z0.2999999999999998 E43.099999999999994
G1 F1500 X10.0 Y100.5 Z0.2999999999999998 E45.099999999999994
G1 F1500 X10.0 Y101.0 Z0.2999999999999998 E45.14999999999999
G1 F1500 X30.0 Y101.0 Z0.2999999999999998 E47.14999999999999
G1 F1500 X30.0 Y101.5 Z0.2999999999999998 E47.19999999999999
G1 F1500 X10.0 Y101.5 Z0.2999999999999998 E49.19999999999999
G1 F1500 X10.0 Y102.0 Z0.2999999999999998 E49.249999999999986
G1 F1500 X30.0 Y102.0 Z0.2999999999999998 E51.249999999999986
G1 F1500 X30.0 Y102.5 Z0.2999999999999998 E51.29999999999998
G1 F1500 X10.0 Y102.5 Z0.2999999999999998 E53.29999999999998
G1 F1500 X10.0 Y103.0 Z0.2999999999999998 E53.34999999999998
G1 F1500 X30.0 Y103.0 Z0.2999999999999998 E55.34999999999998
G1 F1500 X30.0 Y103.5 Z0.2999999999999998 E55.39999999999998
G1 F1500 X10.0 Y103.5 Z0.2999999999999998 E57.39999999999998
G1 F1500 X10.0 Y104.0 Z0.2999999999999998 E57.449999999999974
G1 F1500 X30.0 Y104.0 Z0.2999999999999998 E59.449999999999974
G1 F1500 X30.0 Y104.5 Z0.2999999999999998 E59.49999999999997
G1 F1500 X10.0 Y104.5 Z0.2999999999999998 E61.49999999999997
G1 F1500 X10.0 Y105.0 Z0.2999999999999998 E61.54999999999997
G1 F1500 X30.0 Y105.0 Z0.2999999999999998 E63.54999999999997
G1 F1500 X30.0 Y105.5 Z0.2999999999999998 E63.599999999999966
G1 F1500 X10.0 Y105.5 Z0.2999999999999998 E65.59999999999997
G1 F1500 X10.0 Y106.0 Z0.2999999999999998 E65.64999999999996
G1 F1500 X30.0 Y106.0 Z0.2999999999999998 E67.64999999999996
G1 F1500 X30.0 Y106.5 Z0.2999999999999998 E67.69999999999996
G1 F1500 X10.0 Y106.5 Z0.2999999999999998 E69.69999999999996
G1 F1500 X10.0 Y107.0 Z0.2999999999999998 E69.74999999999996
G1 F1500 X30.0 Y107.0 Z0.2999999999999998 E71.74999999999996
G1 F1500 X30.0 Y107.5 Z0.2999999999999998 E71.79999999999995
G1 F1500 X10.0 Y107.5 Z0.2999999999999998 E73.79999999999995
G1 F1500 X10.0 Y108.0 Z0.2999999999999998 E73.84999999999995
G1 F1500 X30.0 Y108.0 Z0.2999999999999998 E75.84999999999995
G1 F1500 X30.0 Y108.5 Z0.2999999999999998 E75.89999999999995
G1 F1500 X10.0 Y108.5 Z0.2999999999999998 E77.89999999999995
G1 F1500 X10.0 Y109.0 Z0.2999999999999998 E77.94999999999995
G1 F1500 X30.0 Y109.0 Z0.2999999999999998 E79.94999999999995
G1 F1500 X30.0 Y109.5 Z0.2999999999999998 E79.99999999999994
G1 F1500 X10.0 Y109.5 Z0.2999999999999998 E81.99999999999994
G1 F1500 X10.0 Y110.0 Z0.2999999999999998 E82.04999999999994
G1 F1500 X30.0 Y110.0 Z0.2999999999999998 E84.04999999999994
G1 F1500 X30.0 Y110.5 Z0.2999999999999998 E84.09999999999994
G1 F1500 X10.0 Y110.5 Z0.2999999999999998 E86.09999999999994
G1 F1500 X10.0 Y111.0 Z0.2999999999999998 E86.14999999999993
G1 F1500 X30.0 Y111.0 Z0.2999999999999998 E88.14999999999993
G1 F1500 X30.0 Y111.5 Z0.2999999999999998 E88.19999999999993
G1 F1500 X10.0 Y111.5 Z0.2999999999999998 E90.19999999999993
G1 F1500 X10.0 Y112.0 Z0.2999999999999998 E90.24999999999993
G1 F1500 X30.0 Y112.0 Z0.2999999999999998 E92.24999999999993
G1 F1500 X30.0 Y112.5 Z0.2999999999999998 E92.29999999999993
G1 F1500 X10.0 Y112.5 Z0.2999999999999998 E94.29999999999993
G1 F1500 X10.0 Y113.0 Z0.2999999999999998 E94.34999999999992
G1 F1500 X30.0 Y113.0 Z0.2999999999999998 E96.34999999999992
G1 F1500 X30.0 Y113.5 Z0.2999999999999998 E96.39999999999992
G1 F1500 X10.0 Y113.5 Z0.2999999999999998 E98.39999999999992
G1 F1500 X10.0 Y114.0 Z0.2999999999999998 E98.44999999999992
G1 F1500 X30.0 Y114.0 Z0.2999999999999998 E100.44999999999992
G1 F1500 X30.0 Y114.5 Z0.2999999999999998 E100.49999999999991
G1 F1500 X10.0 Y114.5 Z0.2999999999999998 E102.49999999999991
G1 F1500 X10.0 Y115.0 Z0.2999999999999998 E102.54999999999991
G1 F1500 X30.0 Y115.0 Z0.2999999999999998 E104.54999999999991
G1 F1500 X30.0 Y115.5 Z0.2999999999999998 E104.59999999999991
G1 F1500 X10.0 Y115.5 Z0.2999999999999998 E106.59999999999991
G1 F1500 X10.0 Y116.0 Z0.2999999999999998 E106.6499999999999
G1 F1500 X30.0 Y116.0 Z0.2999999999999998 E108.6499999999999
G1 F1500 X30.0 Y116.5 Z0.2999999999999998 E108.6999999999999
G1 F1500 X10.0 Y116.5 Z0.2999999999999998 E110.6999999999999
G1 F1500 X10.0 Y117.0 Z0.2999999999999998 E110.7499999999999
G1 F1500 X30.0 Y117.0 Z0.2999999999999998 E112.7499999999999
G1 F1500 X30.0 Y117.5 Z0.2999999999999998 E112.7999999999999
G1 F1500 X10.0 Y117.5 Z0.2999999999999998 E114.7999999999999
G1 F1500 X10.0 Y118.0 Z0.2999999999999998 E114.8499999999999
G1 F1500 X30.0 Y118.0 Z0.2999999999999998 E116.8499999999999
G1 F1500 X30.0 Y118.5 Z0.2999999999999998 E116.89999999999989
G1 F1500 X10.0 Y118.5 Z0.2999999999999998 E118.89999999999989
G1 F1500 X10.0 Y119.0 Z0.2999999999999998 E118.94999999999989
G1 F1500 X30.0 Y119.0 Z0.2999999999999998 E120.94999999999989
G1 F1500 X30.0 Y119.5 Z0.2999999999999998 E120.99999999999989
G1 F1500 X10.0 Y119.5 Z0.2999999999999998 E122.99999999999989
G1 F1500 X10.0 Y120.0 Z0.2999999999999998 E123.04999999999988
G1 F1500 X30.0 Y120.0 Z0.2999999999999998 E125.04999999999988
G1 F1500 X30.0 Y120.5 Z0.2999999999999998 E125.09999999999988
G1 F1500 X10.0 Y120.5 Z0.2999999999999998 E127.09999999999988
G1 F1500 X10.0 Y121.0 Z0.2999999999999998 E127.14999999999988
G1 F1500 X30.0 Y121.0 Z0.2999999999999998 E129.14999999999986
G1 F1500 X30.0 Y121.5 Z0.2999999999999998 E129.19999999999987
G1 F1500 X10.0 Y121.5 Z0.2999999999999998 E131.19999999999987
G1 F1500 X10.0 Y122.0 Z0.2999999999999998 E131.2499999999999
G1 F1500 X30.0 Y122.0 Z0.2999999999999998 E133.2499999999999
G1 F1500 X30.0 Y122.5 Z0.2999999999999998 E133.2999999999999
G1 F1500 X10.0 Y122.5 Z0.2999999999999998 E135.2999999999999
G1 F1500 X10.0 Y123.0 Z0.2999999999999998 E135.3499999999999
G1 F1500 X30.0 Y123.0 Z0.2999999999999998 E137.3499999999999
G1 F1500 X30.0 Y123.5 Z0.2999999999999998 E137.39999999999992
G1 F1500 X10.0 Y123.5 Z0.2999999999999998 E139.39999999999992
G1 F1500 X10.0 Y124.0 Z0.2999999999999998 E139.44999999999993
G1 F1500 X30.0 Y124.0 Z0.2999999999999998 E141.44999999999993
G1 F1500 X30.0 Y124.5 Z0.2999999999999998 E141.49999999999994
G1 F1500 X10.0 Y124.5 Z0.2999999999999998 E143.49999999999994
G1 F1500 X10.0 Y125.0 Z0.2999999999999998 E143.54999999999995
G1 F1500 X30.0 Y125.0 Z0.2999999999999998 E145.54999999999995
G1 F1500 X30.0 Y125.5 Z0.2999999999999998 E145.59999999999997
G1 F1500 X10.0 Y125.5 Z0.2999999999999998 E147.59999999999997
G1 F1500 X10.0 Y126.0 Z0.2999999999999998 E147.64999999999998
G1 F1500 X30.0 Y126.0 Z0.2999999999999998 E149.64999999999998
G1 F1500 X30.0 Y126.5 Z0.2999999999999998 E149.7
G1 F1500 X10.0 Y126.5 Z0.2999999999999998 E151.7
G1 F1500 X10.0 Y127.0 Z0.2999999999999998 E151.75
G1 F1500 X30.0 Y127.0 Z0.2999999999999998 E153.75
G1 F1500 X30.0 Y127.5 Z0.2999999999999998 E153.8
G1 F1500 X10.0 Y127.5 Z0.2999999999999998 E155.8
G1 F1500 X10.0 Y128.0 Z0.2999999999999998 E155.85000000000002
G1 F1500 X30.0 Y128.0 Z0.2999999999999998 E157.85000000000002
G1 F1500 X30.0 Y128.5 Z0.2999999999999998 E157.90000000000003
G1 F1500 X10.0 Y128.5 Z0.2999999999999998 E159.90000000000003
G1 F1500 X10.0 Y129.0 Z0.2999999999999998 E159.95000000000005
G1 F1500 X30.0 Y129.0 Z0.2999999999999998 E161.95000000000005
G1 F1500 X30.0 Y129.5 Z0.2999999999999998 E162.00000000000006
G1 F1500 X10.0 Y129.5 Z0.2999999999999998 E164.00000000000006
G1 F1500 X10.0 Y130.0 Z0.2999999999999998 E164.05000000000007
G1 F1500 X30.0 Y130.0 Z0.2999999999999998 E166.05000000000007
G1 F1500 X30.0 Y130.5 Z0.2999999999999998 E166.10000000000008
G1 F1500 X10.0 Y130.5 Z0.2999999999999998 E168.10000000000008
G1 F1500 X10.0 Y131.0 Z0.2999999999999998 E168.1500000000001
G1 F1500 X30.0 Y131.0 Z0.2999999999999998 E170.1500000000001
G1 F1500 X30.0 Y131.5 Z0.2999999999999998 E170.2000000000001
G1 F1500 X10.0 Y131.5 Z0.2999999999999998 E172.2000000000001
G1 F1500 X10.0 Y132.0 Z0.2999999999999998 E172.2500000000001
G1 F1500 X30.0 Y132.0 Z0.2999999999999998 E174.2500000000001
G1 F1500 X30.0 Y132.5 Z0.2999999999999998 E174.30000000000013
G1 F1500 X10.0 Y132.5 Z0.2999999999999998 E176.30000000000013
G1 F1500 X10.0 Y133.0 Z0.2999999999999998 E176.35000000000014
G1 F1500 X30.0 Y133.0 Z0.2999999999999998 E178.35000000000014
G1 F1500 X30.0 Y133.5 Z0.2999999999999998 E178.40000000000015
G1 F1500 X10.0 Y133.5 Z0.2999999999999998 E180.40000000000015
G1 F1500 X10.0 Y134.0 Z0.2999999999999998 E180.45000000000016
G1 F1500 X30.0 Y134.0 Z0.2999999999999998 E182.45000000000016
G1 F1500 X30.0 Y134.5 Z0.2999999999999998 E182.50000000000017
G1 F1500 X10.0 Y134.5 Z0.2999999999999998 E184.50000000000017
G1 F1500 X10.0 Y135.0 Z0.2999999999999998 E184.55000000000018
G1 F1500 X30.0 Y135.0 Z0.2999999999999998 E186.55000000000018
G1 F1500 X30.0 Y135.5 Z0.2999999999999998 E186.6000000000002
G1 F1500 X10.0 Y135.5 Z0.2999999999999998 E188.6000000000002
G1 F1500 X10.0 Y136.0 Z0.2999999999999998 E188.6500000000002
G1 F1500 X30.0 Y136.0 Z0.2999999999999998 E190.6500000000002
G1 F1500 X30.0 Y136.5 Z0.2999999999999998 E190.70000000000022
G1 F1500 X10.0 Y136.5 Z0.2999999999999998 E192.70000000000022
G1 F1500 X10.0 Y137.0 Z0.2999999999999998 E192.75000000000023
G1 F1500 X30.0 Y137.0 Z0.2999999999999998 E194.75000000000023
G1 F1500 X30.0 Y137.5 Z0.2999999999999998 E194.80000000000024
G1 F1500 X10.0 Y137.5 Z0.2999999999999998 E196.80000000000024
G1 F1500 X10.0 Y138.0 Z0.2999999999999998 E196.85000000000025
G1 F1500 X30.0 Y138.0 Z0.2999999999999998 E198.85000000000025
G1 F1500 X30.0 Y138.5 Z0.2999999999999998 E198.90000000000026
G1 F1500 X10.0 Y138.5 Z0.2999999999999998 E200.90000000000026
G1 F1500 X10.0 Y139.0 Z0.2999999999999998 E200.95000000000027
G1 F1500 X30.0 Y139.0 Z0.2999999999999998 E202.95000000000027
G1 F1500 X30.0 Y139.5 Z0.2999999999999998 E203.00000000000028
G1 F1500 X10.0 Y139.5 Z0.2999999999999998 E205.00000000000028
G1 F1500 X10.0 Y140.0 Z0.2999999999999998 E205.0500000000003
G1 F1500 X30.0 Y140.0 Z0.2999999999999998 E207.0500000000003
G10
G0 F0 X30.0 Y140.5 Z5.8
G0 F0 X30.0 Y90.0 Z5.8
G0 F0 X30.0 Y90.0 Z0.7999999999999998
G11
G1 F1500 X30.0 Y90.0 Z0.7999999999999998 E207.1000000000003
G1 F1500 X10.0 Y90.0 Z0.7999999999999998 E209.1000000000003
G1 F1500 X10.0 Y90.5 Z0.7999999999999998 E209.15000000000032
G1 F1500 X30.0 Y90.5 Z0.7999999999999998 E211.15000000000032
G1 F1500 X30.0 Y91.0 Z0.7999999999999998 E211.20000000000033
G1 F1500 X10.0 Y91.0 Z0.7999999999999998 E213.20000000000033
G1 F1500 X10.0 Y91.5 Z0.7999999999999998 E213.25000000000034
G1 F1500 X30.0 Y91.5 Z0.7999999999999998 E215.25000000000034
G1 F1500 X30.0 Y92.0 Z0.7999999999999998 E215.30000000000035
G1 F1500 X10.0 Y92.0 Z0.7999999999999998 E217.30000000000035
G1 F1500 X10.0 Y92.5 Z0.7999999999999998 E217.35000000000036
G1 F1500 X30.0 Y92.5 Z0.7999999999999998 E219.35000000000036
G1 F1500 X30.0 Y93.0 Z0.7999999999999998 E219.40000000000038
G1 F1500 X10.0 Y93.0 Z0.7999999999999998 E221.40000000000038
G1 F1500 X10.0 Y93.5 Z0.7999999999999998 E221.4500000000004
G1 F1500 X30.0 Y93.5 Z0.7999999999999998 E223.4500000000004
G1 F1500 X30.0 Y94.0 Z0.7999999999999998 E223.5000000000004
G1 F1500 X10.0 Y94.0 Z0.7999999999999998 E225.5000000000004
G1 F1500 X10.0 Y94.5 Z0.7999999999999998 E225.5500000000004
G1 F1500 X30.0 Y94.5 Z0.7999999999999998 E227.5500000000004
G1 F1500 X30.0 Y95.0 Z0.7999999999999998 E227.60000000000042
G1 F1500 X10.0 Y95.0 Z0.7999999999999998 E229.60000000000042
G1 F1500 X10.0 Y95.5 Z0.7999999999999998 E229.65000000000043
G1 F1500 X30.0 Y95.5 Z0.7999999999999998 E231.65000000000043
G1 F1500 X30.0 Y96.0 Z0.7999999999999998 E231.70000000000044
G1 F1500 X10.0 Y96.0 Z0.7999999999999998 E233.70000000000044
G1 F1500 X10.0 Y96.5 Z0.7999999999999998 E233.75000000000045
G1 F1500 X30.0 Y96.5 Z0.7999999999999998 E235.75000000000045
G1 F1500 X30.0 Y97.0 Z0.7999999999999998 E235.80000000000047
G1 F1500 X10.0 Y97.0 Z0.7999999999999998 E237.80000000000047
G1 F1500 X10.0 Y97.5 Z0.7999999999999998 E237.85000000000048
G1 F1500 X30.0 Y97.5 Z0.7999999999999998 E239.85000000000048
G1 F1500 X30.0 Y98.0 Z0.7999999999999998 E239.9000000000005
G1 F1500 X10.0 Y98.0 Z0.7999999999999998 E241.9000000000005
G1 F1500 X10.0 Y98.5 Z0.7999999999999998 E241.9500000000005
G1 F1500 X30.0 Y98.5 Z0.7999999999999998 E243.9500000000005
G1 F1500 X30.0 Y99.0 Z0.7999999999999998 E244.0000000000005
G1 F1500 X10.0 Y99.0 Z0.7999999999999998 E246.0000000000005
G1 F1500 X10.0 Y99.5 Z0.7999999999999998 E246.05000000000052
G1 F1500 X30.0 Y99.5 Z0.7999999999999998 E248.05000000000052
G1 F1500 X30.0 Y100.0 Z0.7999999999999998 E248.10000000000053
G1 F1500 X10.0 Y100.0 Z0.7999999999999998 E250.10000000000053
G1 F1500 X10.0 Y100.5 Z0.7999999999999998 E250.15000000000055
G1 F1500 X30.0 Y100.5 Z0.7999999999999998 E252.15000000000055
G1 F1500 X30.0 Y101.0 Z0.7999999999999998 E252.20000000000056
G1 F1500 X10.0 Y101.0 Z0.7999999999999998 E254.20000000000056
G1 F1500 X10.0 Y101.5 Z0.7999999999999998 E254.25000000000057
G1 F1500 X30.0 Y101.5 Z0.7999999999999998 E256.25000000000057
G1 F1500 X30.0 Y102.0 Z0.7999999999999998 E256.3000000000006
G1 F1500 X10.0 Y102.0 Z0.7999999999999998 E258.3000000000006
G1 F1500 X10.0 Y102.5 Z0.7999999999999998 E258.3500000000006
G1 F1500 X30.0 Y102.5 Z0.7999999999999998 E260.3500000000006
G1 F1500 X30.0 Y103.0 Z0.7999999999999998 E260.4000000000006
