;FLAVOR:UltiGCode
;TIME:3251
;MATERIAL:7502
;MATERIAL2:0
;NOZZLE_DIAMETER:0.4
;Generated with Cura_SteamEngine 2.3.1


M107
G10
G0 F0 X90.0 Y10.0 Z5.3
G0 F0 X90.0 Y10.0 Z5.3
G0 F0 X90.0 Y10.0 Z0.2999999999999998
G11
G10
G0 F0 X90.0 Y10.0 Z5.3
G0 F0 X90.0 Y10.0 Z5.3
G0 F0 X90.0 Y10.0 Z0.2999999999999998
G11
G1 F1500 X90.0 Y10.0 Z0.2999999999999998 E0.030000000000000006
G1 F1500 X90.0 Y30.0 Z0.2999999999999998 E2.03
G1 F1500 X90.3 Y30.0 Z0.2999999999999998 E2.0599999999999996
G1 F1500 X90.3 Y10.0 Z0.2999999999999998 E4.06
G1 F1500 X90.6 Y10.0 Z0.2999999999999998 E4.09
G1 F1500 X90.6 Y30.0 Z0.2999999999999998 E6.09
G1 F1500 X90.89999999999999 Y30.0 Z0.2999999999999998 E6.12
G1 F1500 X90.89999999999999 Y10.0 Z0.2999999999999998 E8.120000000000001
G1 F1500 X91.19999999999999 Y10.0 Z0.2999999999999998 E8.15
G1 F1500 X91.19999999999999 Y30.0 Z0.2999999999999998 E10.15
G1 F1500 X91.49999999999999 Y30.0 Z0.2999999999999998 E10.18
G1 F1500 X91.49999999999999 Y10.0 Z0.2999999999999998 E12.18
G1 F1500 X91.79999999999998 Y10.0 Z0.2999999999999998 E12.209999999999999
G1 F1500 X91.79999999999998 Y30.0 Z0.2999999999999998 E14.209999999999999
G1 F1500 X92.09999999999998 Y30.0 Z0.2999999999999998 E14.239999999999998
G1 F1500 X92.09999999999998 Y10.0 Z0.2999999999999998 E16.24
G1 F1500 X92.39999999999998 Y10.0 Z0.2999999999999998 E16.27
G1 F1500 X92.39999999999998 Y30.0 Z0.2999999999999998 E18.27
G1 F1500 X92.69999999999997 Y30.0 Z0.2999999999999998 E18.3
G1 F1500 X92.69999999999997 Y10.0 Z0.2999999999999998 E20.3
G1 F1500 X92.99999999999997 Y10.0 Z0.2999999999999998 E20.330000000000002
G1 F1500 X92.99999999999997 Y30.0 Z0.2999999999999998 E22.330000000000002
G1 F1500 X93.29999999999997 Y30.0 Z0.2999999999999998 E22.360000000000003
G1 F1500 X93.29999999999997 Y10.0 Z0.2999999999999998 E24.360000000000003
G1 F1500 X93.59999999999997 Y10.0 Z0.2999999999999998 E24.390000000000004
G1 F1500 X93.59999999999997 Y30.0 Z0.2999999999999998 E26.390000000000004
G1 F1500 X93.89999999999996 Y30.0 Z0.2999999999999998 E26.420000000000005
G1 F1500 X93.89999999999996 Y10.0 Z0.2999999999999998 E28.420000000000005
G1 F1500 X94.19999999999996 Y10.0 Z0.2999999999999998 E28.450000000000006
G1 F1500 X94.19999999999996 Y30.0 Z0.2999999999999998 E30.450000000000006
G1 F1500 X94.49999999999996 Y30.0 Z0.2999999999999998 E30.480000000000008
G1 F1500 X94.49999999999996 Y10.0 Z0.2999999999999998 E32.480000000000004
G1 F1500 X94.79999999999995 Y10.0 Z0.2999999999999998 E32.510000000000005
G1 F1500 X94.79999999999995 Y30.0 Z0.2999999999999998 E34.510000000000005
G1 F1500 X95.09999999999995 Y30.0 Z0.2999999999999998 E34.540000000000006
G1 F1500 X95.09999999999995 Y10.0 Z0.2999999999999998 E36.540000000000006
G1 F1500 X95.39999999999995 Y10.0 Z0.2999999999999998 E36.57000000000001
G1 F1500 X95.39999999999995 Y30.0 Z0.2999999999999998 E38.57000000000001
G1 F1500 X95.69999999999995 Y30.0 Z0.2999999999999998 E38.60000000000001
G1 F1500 X95.69999999999995 Y10.0 Z0.2999999999999998 E40.60000000000001
G1 F1500 X95.99999999999994 Y10.0 Z0.2999999999999998 E40.63000000000001
G1 F1500 X95.99999999999994 Y30.0 Z0.2999999999999998 E42.63000000000001
G1 F1500 X96.29999999999994 Y30.0 Z0.2999999999999998 E42.66000000000001
G1 F1500 X96.29999999999994 Y10.0 Z0.2999999999999998 E44.66000000000001
G1 F1500 X96.59999999999994 Y10.0 Z0.2999999999999998 E44.69000000000001
G1 F1500 X96.59999999999994 Y30.0 Z0.2999999999999998 E46.69000000000001
G1 F1500 X96.89999999999993 Y30.0 Z0.2999999999999998 E46.72000000000001
G1 F1500 X96.89999999999993 Y10.0 Z0.2999999999999998 E48.72000000000001
G1 F1500 X97.19999999999993 Y10.0 Z0.2999999999999998 E48.750000000000014
G1 F1500 X97.19999999999993 Y30.0 Z0.2999999999999998 E50.750000000000014
G1 F1500 X97.49999999999993 Y30.0 Z0.2999999999999998 E50.780000000000015
G1 F1500 X97.49999999999993 Y10.0 Z0.2999999999999998 E52.780000000000015
G1 F1500 X97.79999999999993 Y10.0 Z0.2999999999999998 E52.81000000000002
G1 F1500 X97.79999999999993 Y30.0 Z0.2999999999999998 E54.81000000000002
G1 F1500 X98.09999999999992 Y30.0 Z0.2999999999999998 E54.84000000000002
G1 F1500 X98.09999999999992 Y10.0 Z0.2999999999999998 E56.84000000000002
G1 F1500 X98.39999999999992 Y10.0 Z0.2999999999999998 E56.87000000000002
G1 F1500 X98.39999999999992 Y30.0 Z0.2999999999999998 E58.87000000000002
G1 F1500 X98.69999999999992 Y30.0 Z0.2999999999999998 E58.90000000000002
G1 F1500 X98.69999999999992 Y10.0 Z0.2999999999999998 E60.90000000000002
G1 F1500 X98.99999999999991 Y10.0 Z0.2999999999999998 E60.93000000000002
G1 F1500 X98.99999999999991 Y30.0 Z0.2999999999999998 E62.93000000000002
G1 F1500 X99.29999999999991 Y30.0 Z0.2999999999999998 E62.96000000000002
G1 F1500 X99.29999999999991 Y10.0 Z0.2999999999999998 E64.96000000000002
G1 F1500 X99.59999999999991 Y10.0 Z0.2999999999999998 E64.99000000000002
G1 F1500 X99.59999999999991 Y30.0 Z0.2999999999999998 E66.99000000000002
G1 F1500 X99.8999999999999 Y30.0 Z0.2999999999999998 E67.02000000000002
G1 F1500 X99.8999999999999 Y10.0 Z0.2999999999999998 E69.02000000000002
G1 F1500 X100.1999999999999 Y10.0 Z0.2999999999999998 E69.05000000000003
G1 F1500 X100.1999999999999 Y30.0 Z0.2999999999999998 E71.05000000000003
G1 F1500 X100.4999999999999 Y30.0 Z0.2999999999999998 E71.08000000000003
G1 F1500 X100.4999999999999 Y10.0 Z0.2999999999999998 E73.08000000000003
G1 F1500 X100.7999999999999 Y10.0 Z0.2999999999999998 E73.11000000000003
G1 F1500 X100.7999999999999 Y30.0 Z0.2999999999999998 E75.11000000000003
G1 F1500 X101.0999999999999 Y30.0 Z0.2999999999999998 E75.14000000000003
G1 F1500 X101.0999999999999 Y10.0 Z0.2999999999999998 E77.14000000000003
G1 F1500 X101.39999999999989 Y10.0 Z0.2999999999999998 E77.17000000000003
G1 F1500 X101.39999999999989 Y30.0 Z0.2999999999999998 E79.17000000000003
G1 F1500 X101.69999999999989 Y30.0 Z0.2999999999999998 E79.20000000000003
G1 F1500 X101.69999999999989 Y10.0 Z0.2999999999999998 E81.20000000000003
G1 F1500 X101.99999999999989 Y10.0 Z0.2999999999999998 E81.23000000000003
G1 F1500 X101.99999999999989 Y30.0 Z0.2999999999999998 E83.23000000000003
G1 F1500 X102.29999999999988 Y30.0 Z0.2999999999999998 E83.26000000000003
G1 F1500 X102.29999999999988 Y10.0 Z0.2999999999999998 E85.26000000000003
G1 F1500 X102.59999999999988 Y10.0 Z0.2999999999999998 E85.29000000000003
G1 F1500 X102.59999999999988 Y30.0 Z0.2999999999999998 E87.29000000000003
G1 F1500 X102.89999999999988 Y30.0 Z0.2999999999999998 E87.32000000000004
G1 F1500 X102.89999999999988 Y10.0 Z0.2999999999999998 E89.32000000000004
G1 F1500 X103.19999999999987 Y10.0 Z0.2999999999999998 E89.35000000000004
G1 F1500 X103.19999999999987 Y30.0 Z0.2999999999999998 E91.35000000000004
G1 F1500 X103.49999999999987 Y30.0 Z0.2999999999999998 E91.38000000000004
G1 F1500 X103.49999999999987 Y10.0 Z0.2999999999999998 E93.38000000000004
G1 F1500 X103.79999999999987 Y10.0 Z0.2999999999999998 E93.41000000000004
G1 F1500 X103.79999999999987 Y30.0 Z0.2999999999999998 E95.41000000000004
G1 F1500 X104.09999999999987 Y30.0 Z0.2999999999999998 E95.44000000000004
G1 F1500 X104.09999999999987 Y10.0 Z0.2999999999999998 E97.44000000000004
G1 F1500 X104.39999999999986 Y10.0 Z0.2999999999999998 E97.47000000000004
G1 F1500 X104.39999999999986 Y30.0 Z0.2999999999999998 E99.47000000000004
G1 F1500 X104.69999999999986 Y30.0 Z0.2999999999999998 E99.50000000000004
G1 F1500 X104.69999999999986 Y10.0 Z0.2999999999999998 E101.50000000000004
G1 F1500 X104.99999999999986 Y10.0 Z0.2999999999999998 E101.53000000000004
G1 F1500 X104.99999999999986 Y30.0 Z0.2999999999999998 E103.53000000000004
G1 F1500 X105.29999999999986 Y30.0 Z0.2999999999999998 E103.56000000000004
G1 F1500 X105.29999999999986 Y10.0 Z0.2999999999999998 E105.56000000000004
G1 F1500 X105.59999999999985 Y10.0 Z0.2999999999999998 E105.59000000000005
G1 F1500 X105.59999999999985 Y30.0 Z0.2999999999999998 E107.59000000000005
G1 F1500 X105.89999999999985 Y30.0 Z0.2999999999999998 E107.62000000000005
G1 F1500 X105.89999999999985 Y10.0 Z0.2999999999999998 E109.62000000000005
G1 F1500 X106.19999999999985 Y10.0 Z0.2999999999999998 E109.65000000000005
G1 F1500 X106.19999999999985 Y30.0 Z0.2999999999999998 E111.65000000000005
G1 F1500 X106.49999999999984 Y30.0 Z0.2999999999999998 E111.68000000000005
G1 F1500 X106.49999999999984 Y10.0 Z0.2999999999999998 E113.68000000000005
G1 F1500 X106.79999999999984 Y10.0 Z0.2999999999999998 E113.71000000000005
G1 F1500 X106.79999999999984 Y30.0 Z0.2999999999999998 E115.71000000000005
G1 F1500 X107.09999999999984 Y30.0 Z0.2999999999999998 E115.74000000000005
G1 F1500 X107.09999999999984 Y10.0 Z0.2999999999999998 E117.74000000000005
G1 F1500 X107.39999999999984 Y10.0 Z0.2999999999999998 E117.77000000000005
G1 F1500 X107.39999999999984 Y30.0 Z0.2999999999999998 E119.77000000000005
G1 F1500 X107.69999999999983 Y30.0 Z0.2999999999999998 E119.80000000000005
G1 F1500 X107.69999999999983 Y10.0 Z0.2999999999999998 E121.80000000000005
G1 F1500 X107.99999999999983 Y10.0 Z0.2999999999999998 E121.83000000000006
G1 F1500 X107.99999999999983 Y30.0 Z0.2999999999999998 E123.83000000000006
G1 F1500 X108.29999999999983 Y30.0 Z0.2999999999999998 E123.86000000000006
G1 F1500 X108.29999999999983 Y10.0 Z0.2999999999999998 E125.86000000000006
G1 F1500 X108.59999999999982 Y10.0 Z0.2999999999999998 E125.89000000000006
G1 F1500 X108.59999999999982 Y30.0 Z0.2999999999999998 E127.89000000000006
G1 F1500 X108.89999999999982 Y30.0 Z0.2999999999999998 E127.92000000000006
G1 F1500 X108.89999999999982 Y10.0 Z0.2999999999999998 E129.92000000000007
G1 F1500 X109.19999999999982 Y10.0 Z0.2999999999999998 E129.95000000000007
G1 F1500 X109.19999999999982 Y30.0 Z0.2999999999999998 E131.95000000000007
G1 F1500 X109.49999999999982 Y30.0 Z0.2999999999999998 E131.98000000000008
G1 F1500 X109.49999999999982 Y10.0 Z0.2999999999999998 E133.98000000000008
G1 F1500 X109.79999999999981 Y10.0 Z0.2999999999999998 E134.01000000000008
G1 F1500 X109.79999999999981 Y30.0 Z0.2999999999999998 E136.01000000000008
G1 F1500 X110.09999999999981 Y30.0 Z0.2999999999999998 E136.04000000000008
G1 F1500 X110.09999999999981 Y10.0 Z0.2999999999999998 E138.04000000000008
G1 F1500 X110.3999999999998 Y10.0 Z0.2999999999999998 E138.07000000000008
G1 F1500 X110.3999999999998 Y30.0 Z0.2999999999999998 E140.07000000000008
G1 F1500 X110.6999999999998 Y30.0 Z0.2999999999999998 E140.10000000000008
G1 F1500 X110.6999999999998 Y10.0 Z0.2999999999999998 E142.10000000000008
G1 F1500 X110.9999999999998 Y10.0 Z0.2999999999999998 E142.13000000000008
G1 F1500 X110.9999999999998 Y30.0 Z0.2999999999999998 E144.13000000000008
G1 F1500 X111.2999999999998 Y30.0 Z0.2999999999999998 E144.16000000000008
G1 F1500 X111.2999999999998 Y10.0 Z0.2999999999999998 E146.16000000000008
G1 F1500 X111.5999999999998 Y10.0 Z0.2999999999999998 E146.19000000000008
G1 F1500 X111.5999999999998 Y30.0 Z0.2999999999999998 E148.19000000000008
G1 F1500 X111.89999999999979 Y30.0 Z0.2999999999999998 E148.22000000000008
G1 F1500 X111.89999999999979 Y10.0 Z0.2999999999999998 E150.22000000000008
G1 F1500 X112.19999999999979 Y10.0 Z0.2999999999999998 E150.25000000000009
G1 F1500 X112.19999999999979 Y30.0 Z0.2999999999999998 E152.25000000000009
G1 F1500 X112.49999999999979 Y30.0 Z0.2999999999999998 E152.2800000000001
G1 F1500 X112.49999999999979 Y10.0 Z0.2999999999999998 E154.2800000000001
G1 F1500 X112.79999999999978 Y10.0 Z0.2999999999999998 E154.3100000000001
G1 F1500 X112.79999999999978 Y30.0 Z0.2999999999999998 E156.3100000000001
G1 F1500 X113.09999999999978 Y30.0 Z0.2999999999999998 E156.3400000000001
G1 F1500 X113.09999999999978 Y10.0 Z0.2999999999999998 E158.3400000000001
G1 F1500 X113.39999999999978 Y10.0 Z0.2999999999999998 E158.3700000000001
G1 F1500 X113.39999999999978 Y30.0 Z0.2999999999999998 E160.3700000000001
G1 F1500 X113.69999999999978 Y30.0 Z0.2999999999999998 E160.4000000000001
G1 F1500 X113.69999999999978 Y10.0 Z0.2999999999999998 E162.4000000000001
G1 F1500 X113.99999999999977 Y10.0 Z0.2999999999999998 E162.4300000000001
G1 F1500 X113.99999999999977 Y30.0 Z0.2999999999999998 E164.4300000000001
G1 F1500 X114.29999999999977 Y30.0 Z0.2999999999999998 E164.4600000000001
G1 F1500 X114.29999999999977 Y10.0 Z0.2999999999999998 E166.4600000000001
G1 F1500 X114.59999999999977 Y10.0 Z0.2999999999999998 E166.4900000000001
G1 F1500 X114.59999999999977 Y30.0 Z0.2999999999999998 E168.4900000000001
G1 F1500 X114.89999999999976 Y30.0 Z0.2999999999999998 E168.5200000000001
G1 F1500 X114.89999999999976 Y10.0 Z0.2999999999999998 E170.5200000000001
G1 F1500 X115.19999999999976 Y10.0 Z0.2999999999999998 E170.5500000000001
G1 F1500 X115.19999999999976 Y30.0 Z0.2999999999999998 E172.5500000000001
G1 F1500 X115.49999999999976 Y30.0 Z0.2999999999999998 E172.5800000000001
G1 F1500 X115.49999999999976 Y10.0 Z0.2999999999999998 E174.5800000000001
G1 F1500 X115.79999999999976 Y10.0 Z0.2999999999999998 E174.6100000000001
G1 F1500 X115.79999999999976 Y30.0 Z0.2999999999999998 E176.6100000000001
G1 F1500 X116.09999999999975 Y30.0 Z0.2999999999999998 E176.6400000000001
G1 F1500 X116.09999999999975 Y10.0 Z0.2999999999999998 E178.6400000000001
G1 F1500 X116.39999999999975 Y10.0 Z0.2999999999999998 E178.6700000000001
G1 F1500 X116.39999999999975 Y30.0 Z0.2999999999999998 E180.6700000000001
G1 F1500 X116.69999999999975 Y30.0 Z0.2999999999999998 E180.7000000000001
G1 F1500 X116.69999999999975 Y10.0 Z0.2999999999999998 E182.7000000000001
G1 F1500 X116.99999999999974 Y10.0 Z0.2999999999999998 E182.7300000000001
G1 F1500 X116.99999999999974 Y30.0 Z0.2999999999999998 E184.7300000000001
G1 F1500 X117.29999999999974 Y30.0 Z0.2999999999999998 E184.7600000000001
G1 F1500 X117.29999999999974 Y10.0 Z0.2999999999999998 E186.7600000000001
G1 F1500 X117.59999999999974 Y10.0 Z0.2999999999999998 E186.7900000000001
G1 F1500 X117.59999999999974 Y30.0 Z0.2999999999999998 E188.7900000000001
G1 F1500 X117.89999999999974 Y30.0 Z0.2999999999999998 E188.8200000000001
G1 F1500 X117.89999999999974 Y10.0 Z0.2999999999999998 E190.8200000000001
G1 F1500 X118.19999999999973 Y10.0 Z0.2999999999999998 E190.8500000000001
G1 F1500 X118.19999999999973 Y30.0 Z0.2999999999999998 E192.8500000000001
G1 F1500 X118.49999999999973 Y30.0 Z0.2999999999999998 E192.8800000000001
G1 F1500 X118.49999999999973 Y10.0 Z0.2999999999999998 E194.8800000000001
G1 F1500 X118.79999999999973 Y10.0 Z0.2999999999999998 E194.9100000000001
G1 F1500 X118.79999999999973 Y30.0 Z0.2999999999999998 E196.9100000000001
G1 F1500 X119.09999999999972 Y30.0 Z0.2999999999999998 E196.9400000000001
G1 F1500 X119.09999999999972 Y10.0 Z0.2999999999999998 E198.9400000000001
G1 F1500 X119.39999999999972 Y10.0 Z0.2999999999999998 E198.9700000000001
G1 F1500 X119.39999999999972 Y30.0 Z0.2999999999999998 E200.9700000000001
G1 F1500 X119.69999999999972 Y30.0 Z0.2999999999999998 E201.0000000000001
G1 F1500 X119.69999999999972 Y10.0 Z0.2999999999999998 E203.0000000000001
G1 F1500 X119.99999999999972 Y10.0 Z0.2999999999999998 E203.03000000000011
G1 F1500 X119.99999999999972 Y30.0 Z0.2999999999999998 E205.03000000000011
G1 F1500 X120.29999999999971 Y30.0 Z0.2999999999999998 E205.06000000000012
G1 F1500 X120.29999999999971 Y10.0 Z0.2999999999999998 E207.06000000000012
G1 F1500 X120.59999999999971 Y10.0 Z0.2999999999999998 E207.09000000000012
G1 F1500 X120.59999999999971 Y30.0 Z0.2999999999999998 E209.09000000000012
G1 F1500 X120.89999999999971 Y30.0 Z0.2999999999999998 E209.12000000000012
G1 F1500 X120.89999999999971 Y10.0 Z0.2999999999999998 E211.12000000000012
G1 F1500 X121.1999999999997 Y10.0 Z0.2999999999999998 E211.15000000000012
G1 F1500 X121.1999999999997 Y30.0 Z0.2999999999999998 E213.15000000000012
G1 F1500 X121.4999999999997 Y30.0 Z0.2999999999999998 E213.18000000000012
G1 F1500 X121.4999999999997 Y10.0 Z0.2999999999999998 E215.18000000000012
