;FLAVOR:UltiGCode
;TIME:3251
;MATERIAL:7502
;MATERIAL2:0
;NOZZLE_DIAMETER:0.4
;Generated with Cura_SteamEngine 2.3.1


M107
G10
G0 F0 X10.0 Y90.0 Z5.3
G0 F0 X10.0 Y90.0 Z5.3
G0 F0 X10.0 Y90.0 Z0.2999999999999998
G11
G10
G0 F0 X10.0 Y90.0 Z5.3
G0 F0 X10.0 Y90.0 Z5.3
G0 F0 X10.0 Y90.0 Z0.2999999999999998
G11
G1 F1500 X10.0 Y90.0 Z0.2999999999999998 E0.04000000000000001
G1 F1500 X30.0 Y90.0 Z0.2999999999999998 E2.04
G1 F1500 X30.0 Y90.4 Z0.2999999999999998 E2.08
G1 F1500 X10.0 Y90.4 Z0.2999999999999998 E4.08
G1 F1500 X10.0 Y90.80000000000001 Z0.2999999999999998 E4.12
G1 F1500 X30.0 Y90.80000000000001 Z0.2999999999999998 E6.12
G1 F1500 X30.0 Y91.20000000000002 Z0.2999999999999998 E6.16
G1 F1500 X10.0 Y91.20000000000002 Z0.2999999999999998 E8.16
G1 F1500 X10.0 Y91.60000000000002 Z0.2999999999999998 E8.2
G1 F1500 X30.0 Y91.60000000000002 Z0.2999999999999998 E10.2
G1 F1500 X30.0 Y92.00000000000003 Z0.2999999999999998 E10.239999999999998
G1 F1500 X10.0 Y92.00000000000003 Z0.2999999999999998 E12.239999999999998
G1 F1500 X10.0 Y92.40000000000003 Z0.2999999999999998 E12.279999999999998
G1 F1500 X30.0 Y92.40000000000003 Z0.2999999999999998 E14.279999999999998
G1 F1500 X30.0 Y92.80000000000004 Z0.2999999999999998 E14.319999999999997
G1 F1500 X10.0 Y92.80000000000004 Z0.2999999999999998 E16.319999999999997
G1 F1500 X10.0 Y93.20000000000005 Z0.2999999999999998 E16.359999999999996
G1 F1500 X30.0 Y93.20000000000005 Z0.2999999999999998 E18.359999999999996
G1 F1500 X30.0 Y93.60000000000005 Z0.2999999999999998 E18.399999999999995
G1 F1500 X10.0 Y93.60000000000005 Z0.2999999999999998 E20.399999999999995
G1 F1500 X10.0 Y94.00000000000006 Z0.2999999999999998 E20.439999999999994
G1 F1500 X30.0 Y94.00000000000006 Z0.2999999999999998 E22.439999999999994
G1 F1500 X30.0 Y94.40000000000006 Z0.2999999999999998 E22.479999999999993
G1 F1500 X10.0 Y94.40000000000006 Z0.2999999999999998 E24.479999999999993
G1 F1500 X10.0 Y94.80000000000007 Z0.2999999999999998 E24.519999999999992
G1 F1500 X30.0 Y94.80000000000007 Z0.2999999999999998 E26.519999999999992
G1 F1500 X30.0 Y95.20000000000007 Z0.2999999999999998 E26.55999999999999
G1 F1500 X10.0 Y95.20000000000007 Z0.2999999999999998 E28.55999999999999
G1 F1500 X10.0 Y95.60000000000008 Z0.2999999999999998 E28.59999999999999
G1 F1500 X30.0 Y95.60000000000008 Z0.2999999999999998 E30.59999999999999
G1 F1500 X30.0 Y96.00000000000009 Z0.2999999999999998 E30.63999999999999
G1 F1500 X10.0 Y96.00000000000009 Z0.2999999999999998 E32.639999999999986
G1 F1500 X10.0 Y96.40000000000009 Z0.2999999999999998 E32.679999999999986
G1 F1500 X30.0 Y96.40000000000009 Z0.2999999999999998 E34.679999999999986
G1 F1500 X30.0 Y96.8000000000001 Z0.2999999999999998 E34.719999999999985
G1 F1500 X10.0 Y96.8000000000001 Z0.2999999999999998 E36.719999999999985
G1 F1500 X10.0 Y97.2000000000001 Z0.2999999999999998 E36.759999999999984
G1 F1500 X30.0 Y97.2000000000001 Z0.2999999999999998 E38.759999999999984
G1 F1500 X30.0 Y97.60000000000011 Z0.2999999999999998 E38.79999999999998
G1 F1500 X10.0 Y97.60000000000011 Z0.2999999999999998 E40.79999999999998
G1 F1500 X10.0 Y98.00000000000011 Z0.2999999999999998 E40.83999999999998
G1 F1500 X30.0 Y98.00000000000011 Z0.2999999999999998 E42.83999999999998
G1 F1500 X30.0 Y98.40000000000012 Z0.2999999999999998 E42.87999999999998
G1 F1500 X10.0 Y98.40000000000012 Z0.2999999999999998 E44.87999999999998
G1 F1500 X10.0 Y98.80000000000013 Z0.2999999999999998 E44.91999999999998
G1 F1500 X30.0 Y98.80000000000013 Z0.2999999999999998 E46.91999999999998
G1 F1500 X30.0 Y99.20000000000013 Z0.2999999999999998 E46.95999999999998
G1 F1500 X10.0 Y99.20000000000013 Z0.2999999999999998 E48.95999999999998
G1 F1500 X10.0 Y99.60000000000014 Z0.2999999999999998 E48.99999999999998
G1 F1500 X30.0 Y99.60000000000014 Z0.2999999999999998 E50.99999999999998
G1 F1500 X30.0 Y100.00000000000014 Z0.2999999999999998 E51.03999999999998
G1 F1500 X10.0 Y100.00000000000014 Z0.2999999999999998 E53.03999999999998
G1 F1500 X10.0 Y100.40000000000015 Z0.2999999999999998 E53.07999999999998
G1 F1500 X30.0 Y100.40000000000015 Z0.2999999999999998 E55.07999999999998
G1 F1500 X30.0 Y100.80000000000015 Z0.2999999999999998 E55.119999999999976
G1 F1500 X10.0 Y100.80000000000015 Z0.2999999999999998 E57.119999999999976
G1 F1500 X10.0 Y101.20000000000016 Z0.2999999999999998 E57.159999999999975
G1 F1500 X30.0 Y101.20000000000016 Z0.2999999999999998 E59.159999999999975
G1 F1500 X30.0 Y101.60000000000016 Z0.2999999999999998 E59.199999999999974
G1 F1500 X10.0 Y101.60000000000016 Z0.2999999999999998 E61.199999999999974
G1 F1500 X10.0 Y102.00000000000017 Z0.2999999999999998 E61.239999999999974
G1 F1500 X30.0 Y102.00000000000017 Z0.2999999999999998 E63.239999999999974
G1 F1500 X30.0 Y102.40000000000018 Z0.2999999999999998 E63.27999999999997
G1 F1500 X10.0 Y102.40000000000018 Z0.2999999999999998 E65.27999999999997
G1 F1500 X10.0 Y102.80000000000018 Z0.2999999999999998 E65.31999999999998
G1 F1500 X30.0 Y102.80000000000018 Z0.2999999999999998 E67.31999999999998
G1 F1500 X30.0 Y103.20000000000019 Z0.2999999999999998 E67.35999999999999
G1 F1500 X10.0 Y103.20000000000019 Z0.2999999999999998 E69.35999999999999
G1 F1500 X10.0 Y103.6000000000002 Z0.2999999999999998 E69.39999999999999
G1 F1500 X30.0 Y103.6000000000002 Z0.2999999999999998 E71.39999999999999
G1 F1500 X30.0 Y104.0000000000002 Z0.2999999999999998 E71.44
G1 F1500 X10.0 Y104.0000000000002 Z0.2999999999999998 E73.44
G1 F1500 X10.0 Y104.4000000000002 Z0.2999999999999998 E73.48
G1 F1500 X30.0 Y104.4000000000002 Z0.2999999999999998 E75.48
G1 F1500 X30.0 Y104.80000000000021 Z0.2999999999999998 E75.52000000000001
G1 F1500 X10.0 Y104.80000000000021 Z0.2999999999999998 E77.52000000000001
G1 F1500 X10.0 Y105.20000000000022 Z0.2999999999999998 E77.56000000000002
G1 F1500 X30.0 Y105.20000000000022 Z0.2999999999999998 E79.56000000000002
G1 F1500 X30.0 Y105.60000000000022 Z0.2999999999999998 E79.60000000000002
G1 F1500 X10.0 Y105.60000000000022 Z0.2999999999999998 E81.60000000000002
G1 F1500 X10.0 Y106.00000000000023 Z0.2999999999999998 E81.64000000000003
G1 F1500 X30.0 Y106.00000000000023 Z0.2999999999999998 E83.64000000000003
G1 F1500 X30.0 Y106.40000000000023 Z0.2999999999999998 E83.68000000000004
G1 F1500 X10.0 Y106.40000000000023 Z0.2999999999999998 E85.68000000000004
G1 F1500 X10.0 Y106.80000000000024 Z0.2999999999999998 E85.72000000000004
G1 F1500 X30.0 Y106.80000000000024 Z0.2999999999999998 E87.72000000000004
G1 F1500 X30.0 Y107.20000000000024 Z0.2999999999999998 E87.76000000000005
G1 F1500 X10.0 Y107.20000000000024 Z0.2999999999999998 E89.76000000000005
G1 F1500 X10.0 Y107.60000000000025 Z0.2999999999999998 E89.80000000000005
G1 F1500 X30.0 Y107.60000000000025 Z0.2999999999999998 E91.80000000000005
G1 F1500 X30.0 Y108.00000000000026 Z0.2999999999999998 E91.84000000000006
G1 F1500 X10.0 Y108.00000000000026 Z0.2999999999999998 E93.84000000000006
G1 F1500 X10.0 Y108.40000000000026 Z0.2999999999999998 E93.88000000000007
G1 F1500 X30.0 Y108.40000000000026 Z0.2999999999999998 E95.88000000000007
G1 F1500 X30.0 Y108.80000000000027 Z0.2999999999999998 E95.92000000000007
G1 F1500 X10.0 Y108.80000000000027 Z0.2999999999999998 E97.92000000000007
G1 F1500 X10.0 Y109.20000000000027 Z0.2999999999999998 E97.96000000000008
G1 F1500 X30.0 Y109.20000000000027 Z0.2999999999999998 E99.96000000000008
G1 F1500 X30.0 Y109.60000000000028 Z0.2999999999999998 E100.00000000000009
G1 F1500 X10.0 Y109.60000000000028 Z0.2999999999999998 E102.00000000000009
G1 F1500 X10.0 Y110.00000000000028 Z0.2999999999999998 E102.04000000000009
G1 F1500 X30.0 Y110.00000000000028 Z0.2999999999999998 E104.04000000000009
G1 F1500 X30.0 Y110.40000000000029 Z0.2999999999999998 E104.0800000000001
G1 F1500 X10.0 Y110.40000000000029 Z0.2999999999999998 E106.0800000000001
G1 F1500 X10.0 Y110.8000000000003 Z0.2999999999999998 E106.1200000000001
G1 F1500 X30.0 Y110.8000000000003 Z0.2999999999999998 E108.1200000000001
G1 F1500 X30.0 Y111.2000000000003 Z0.2999999999999998 E108.16000000000011
G1 F1500 X10.0 Y111.2000000000003 Z0.2999999999999998 E110.16000000000011
G1 F1500 X10.0 Y111.6000000000003 Z0.2999999999999998 E110.20000000000012
G1 F1500 X30.0 Y111.6000000000003 Z0.2999999999999998 E112.20000000000012
G1 F1500 X30.0 Y112.00000000000031 Z0.2999999999999998 E112.24000000000012
G1 F1500 X10.0 Y112.00000000000031 Z0.2999999999999998 E114.24000000000012
G1 F1500 X10.0 Y112.40000000000032 Z0.2999999999999998 E114.28000000000013
G1 F1500 X30.0 Y112.40000000000032 Z0.2999999999999998 E116.28000000000013
G1 F1500 X30.0 Y112.80000000000032 Z0.2999999999999998 E116.32000000000014
G1 F1500 X10.0 Y112.80000000000032 Z0.2999999999999998 E118.32000000000014
G1 F1500 X10.0 Y113.20000000000033 Z0.2999999999999998 E118.36000000000014
G1 F1500 X30.0 Y113.20000000000033 Z0.2999999999999998 E120.36000000000014
G1 F1500 X30.0 Y113.60000000000034 Z0.2999999999999998 E120.40000000000015
G1 F1500 X10.0 Y113.60000000000034 Z0.2999999999999998 E122.40000000000015
G1 F1500 X10.0 Y114.00000000000034 Z0.2999999999999998 E122.44000000000015
G1 F1500 X30.0 Y114.00000000000034 Z0.2999999999999998 E124.44000000000015
G1 F1500 X30.0 Y114.40000000000035 Z0.2999999999999998 E124.48000000000016
G1 F1500 X10.0 Y114.40000000000035 Z0.2999999999999998 E126.48000000000016
G1 F1500 X10.0 Y114.80000000000035 Z0.2999999999999998 E126.52000000000017
G1 F1500 X30.0 Y114.80000000000035 Z0.2999999999999998 E128.52000000000015
G1 F1500 X30.0 Y115.20000000000036 Z0.2999999999999998 E128.56000000000014
G1 F1500 X10.0 Y115.20000000000036 Z0.2999999999999998 E130.56000000000014
G1 F1500 X10.0 Y115.60000000000036 Z0.2999999999999998 E130.60000000000014
G1 F1500 X30.0 Y115.60000000000036 Z0.2999999999999998 E132.60000000000014
G1 F1500 X30.0 Y116.00000000000037 Z0.2999999999999998 E132.64000000000013
G1 F1500 X10.0 Y116.00000000000037 Z0.2999999999999998 E134.64000000000013
G1 F1500 X10.0 Y116.40000000000038 Z0.2999999999999998 E134.68000000000012
G1 F1500 X30.0 Y116.40000000000038 Z0.2999999999999998 E136.68000000000012
G1 F1500 X30.0 Y116.80000000000038 Z0.2999999999999998 E136.7200000000001
G1 F1500 X10.0 Y116.80000000000038 Z0.2999999999999998 E138.7200000000001
G1 F1500 X10.0 Y117.20000000000039 Z0.2999999999999998 E138.7600000000001
G1 F1500 X30.0 Y117.20000000000039 Z0.2999999999999998 E140.7600000000001
G1 F1500 X30.0 Y117.60000000000039 Z0.2999999999999998 E140.8000000000001
G1 F1500 X10.0 Y117.60000000000039 Z0.2999999999999998 E142.8000000000001
G1 F1500 X10.0 Y118.0000000000004 Z0.2999999999999998 E142.8400000000001
G1 F1500 X30.0 Y118.0000000000004 Z0.2999999999999998 E144.8400000000001
G1 F1500 X30.0 Y118.4000000000004 Z0.2999999999999998 E144.88000000000008
G1 F1500 X10.0 Y118.4000000000004 Z0.2999999999999998 E146.88000000000008
G1 F1500 X10.0 Y118.80000000000041 Z0.2999999999999998 E146.92000000000007
G1 F1500 X30.0 Y118.80000000000041 Z0.2999999999999998 E148.92000000000007
G1 F1500 X30.0 Y119.20000000000041 Z0.2999999999999998 E148.96000000000006
G1 F1500 X10.0 Y119.20000000000041 Z0.2999999999999998 E150.96000000000006
G1 F1500 X10.0 Y119.60000000000042 Z0.2999999999999998 E151.00000000000006
G1 F1500 X30.0 Y119.60000000000042 Z0.2999999999999998 E153.00000000000006
G1 F1500 X30.0 Y120.00000000000043 Z0.2999999999999998 E153.04000000000005
G1 F1500 X10.0 Y120.00000000000043 Z0.2999999999999998 E155.04000000000005
G1 F1500 X10.0 Y120.40000000000043 Z0.2999999999999998 E155.08000000000004
G1 F1500 X30.0 Y120.40000000000043 Z0.2999999999999998 E157.08000000000004
G1 F1500 X30.0 Y120.80000000000044 Z0.2999999999999998 E157.12000000000003
G1 F1500 X10.0 Y120.80000000000044 Z0.2999999999999998 E159.12000000000003
G1 F1500 X10.0 Y121.20000000000044 Z0.2999999999999998 E159.16000000000003
G1 F1500 X30.0 Y121.20000000000044 Z0.2999999999999998 E161.16000000000003
G1 F1500 X30.0 Y121.60000000000045 Z0.2999999999999998 E161.20000000000002
G1 F1500 X10.0 Y121.60000000000045 Z0.2999999999999998 E163.20000000000002
G1 F1500 X10.0 Y122.00000000000045 Z0.2999999999999998 E163.24
G1 F1500 X30.0 Y122.00000000000045 Z0.2999999999999998 E165.24
G1 F1500 X30.0 Y122.40000000000046 Z0.2999999999999998 E165.28
G1 F1500 X10.0 Y122.40000000000046 Z0.2999999999999998 E167.28
G1 F1500 X10.0 Y122.80000000000047 Z0.2999999999999998 E167.32
G1 F1500 X30.0 Y122.80000000000047 Z0.2999999999999998 E169.32
G1 F1500 X30.0 Y123.20000000000047 Z0.2999999999999998 E169.35999999999999
G1 F1500 X10.0 Y123.20000000000047 Z0.2999999999999998 E171.35999999999999
G1 F1500 X10.0 Y123.60000000000048 Z0.2999999999999998 E171.39999999999998
G1 F1500 X30.0 Y123.60000000000048 Z0.2999999999999998 E173.39999999999998
G1 F1500 X30.0 Y124.00000000000048 Z0.2999999999999998 E173.43999999999997
G1 F1500 X10.0 Y124.00000000000048 Z0.2999999999999998 E175.43999999999997
G1 F1500 X10.0 Y124.40000000000049 Z0.2999999999999998 E175.47999999999996
G1 F1500 X30.0 Y124.40000000000049 Z0.2999999999999998 E177.47999999999996
G1 F1500 X30.0 Y124.8000000000005 Z0.2999999999999998 E177.51999999999995
G1 F1500 X10.0 Y124.8000000000005 Z0.2999999999999998 E179.51999999999995
G1 F1500 X10.0 Y125.2000000000005 Z0.2999999999999998 E179.55999999999995
G1 F1500 X30.0 Y125.2000000000005 Z0.2999999999999998 E181.55999999999995
G1 F1500 X30.0 Y125.6000000000005 Z0.2999999999999998 E181.59999999999994
G1 F1500 X10.0 Y125.6000000000005 Z0.2999999999999998 E183.59999999999994
G1 F1500 X10.0 Y126.00000000000051 Z0.2999999999999998 E183.63999999999993
G1 F1500 X30.0 Y126.00000000000051 Z0.2999999999999998 E185.63999999999993
G1 F1500 X30.0 Y126.40000000000052 Z0.2999999999999998 E185.67999999999992
G1 F1500 X10.0 Y126.40000000000052 Z0.2999999999999998 E187.67999999999992
G1 F1500 X10.0 Y126.80000000000052 Z0.2999999999999998 E187.7199999999999
G1 F1500 X30.0 Y126.80000000000052 Z0.2999999999999998 E189.7199999999999
G1 F1500 X30.0 Y127.20000000000053 Z0.2999999999999998 E189.7599999999999
G1 F1500 X10.0 Y127.20000000000053 Z0.2999999999999998 E191.7599999999999
G1 F1500 X10.0 Y127.60000000000053 Z0.2999999999999998 E191.7999999999999
G1 F1500 X30.0 Y127.60000000000053 Z0.2999999999999998 E193.7999999999999
G1 F1500 X30.0 Y128.00000000000054 Z0.2999999999999998 E193.8399999999999
G1 F1500 X10.0 Y128.00000000000054 Z0.2999999999999998 E195.8399999999999
G1 F1500 X10.0 Y128.40000000000055 Z0.2999999999999998 E195.87999999999988
G1 F1500 X30.0 Y128.40000000000055 Z0.2999999999999998 E197.87999999999988
G1 F1500 X30.0 Y128.80000000000055 Z0.2999999999999998 E197.91999999999987
G1 F1500 X10.0 Y128.80000000000055 Z0.2999999999999998 E199.91999999999987
G1 F1500 X10.0 Y129.20000000000056 Z0.2999999999999998 E199.95999999999987
G1 F1500 X30.0 Y129.20000000000056 Z0.2999999999999998 E201.95999999999987
G1 F1500 X30.0 Y129.60000000000056 Z0.2999999999999998 E201.99999999999986
G1 F1500 X10.0 Y129.60000000000056 Z0.2999999999999998 E203.99999999999986
G1 F1500 X10.0 Y130.00000000000057 Z0.2999999999999998 E204.03999999999985
G1 F1500 X30.0 Y130.00000000000057 Z0.2999999999999998 E206.03999999999985
G1 F1500 X30.0 Y130.40000000000057 Z0.2999999999999998 E206.07999999999984
G1 F1500 X10.0 Y130.40000000000057 Z0.2999999999999998 E208.07999999999984
G1 F1500 X10.0 Y130.80000000000058 Z0.2999999999999998 E208.11999999999983
G1 F1500 X30.0 Y130.80000000000058 Z0.2999999999999998 E210.11999999999983
G1 F1500 X30.0 Y131.20000000000059 Z0.2999999999999998 E210.15999999999983
G1 F1500 X10.0 Y131.20000000000059 Z0.2999999999999998 E212.15999999999983
G1 F1500 X10.0 Y131.6000000000006 Z0.2999999999999998 E212.19999999999982
G1 F1500 X30.0 Y131.6000000000006 Z0.2999999999999998 E214.19999999999982
G1 F1500 X30.0 Y132.0000000000006 Z0.2999999999999998 E214.2399999999998
G1 F1500 X10.0 Y132.0000000000006 Z0.2999999999999998 E216.2399999999998
