;FLAVOR:UltiGCode
;TIME:3251
;MATERIAL:7502
;MATERIAL2:0
;NOZZLE_DIAMETER:0.4
;Generated with Cura_SteamEngine 2.3.1


M107
G10
G0 F0 X90.0 Y10.0 Z5.3
G0 F0 X90.0 Y10.0 Z5.3
G0 F0 X90.0 Y10.0 Z0.2999999999999998
G11
G10
G0 F0 X90.0 Y10.0 Z5.3
G0 F0 X90.0 Y10.0 Z5.3
G0 F0 X90.0 Y10.0 Z0.2999999999999998
G11
G1 F1500 X90.0 Y10.0 Z0.2999999999999998 E0.04000000000000001
G1 F1500 X90.0 Y30.0 Z0.2999999999999998 E2.04
G1 F1500 X90.4 Y30.0 Z0.2999999999999998 E2.08
G1 F1500 X90.4 Y10.0 Z0.2999999999999998 E4.08
G1 F1500 X90.80000000000001 Y10.0 Z0.2999999999999998 E4.12
G1 F1500 X90.80000000000001 Y30.0 Z0.2999999999999998 E6.12
G1 F1500 X91.20000000000002 Y30.0 Z0.2999999999999998 E6.16
G1 F1500 X91.20000000000002 Y10.0 Z0.2999999999999998 E8.16
G1 F1500 X91.60000000000002 Y10.0 Z0.2999999999999998 E8.2
G1 F1500 X91.60000000000002 Y30.0 Z0.2999999999999998 E10.2
G1 F1500 X92.00000000000003 Y30.0 Z0.2999999999999998 E10.239999999999998
G1 F1500 X92.00000000000003 Y10.0 Z0.2999999999999998 E12.239999999999998
G1 F1500 X92.40000000000003 Y10.0 Z0.2999999999999998 E12.279999999999998
G1 F1500 X92.40000000000003 Y30.0 Z0.2999999999999998 E14.279999999999998
G1 F1500 X92.80000000000004 Y30.0 Z0.2999999999999998 E14.319999999999997
G1 F1500 X92.80000000000004 Y10.0 Z0.2999999999999998 E16.319999999999997
G1 F1500 X93.20000000000005 Y10.0 Z0.2999999999999998 E16.359999999999996
G1 F1500 X93.20000000000005 Y30.0 Z0.2999999999999998 E18.359999999999996
G1 F1500 X93.60000000000005 Y30.0 Z0.2999999999999998 E18.399999999999995
G1 F1500 X93.60000000000005 Y10.0 Z0.2999999999999998 E20.399999999999995
G1 F1500 X94.00000000000006 Y10.0 Z0.2999999999999998 E20.439999999999994
G1 F1500 X94.00000000000006 Y30.0 Z0.2999999999999998 E22.439999999999994
G1 F1500 X94.40000000000006 Y30.0 Z0.2999999999999998 E22.479999999999993
G1 F1500 X94.40000000000006 Y10.0 Z0.2999999999999998 E24.479999999999993
G1 F1500 X94.80000000000007 Y10.0 Z0.2999999999999998 E24.519999999999992
G1 F1500 X94.80000000000007 Y30.0 Z0.2999999999999998 E26.519999999999992
G1 F1500 X95.20000000000007 Y30.0 Z0.2999999999999998 E26.55999999999999
G1 F1500 X95.20000000000007 Y10.0 Z0.2999999999999998 E28.55999999999999
G1 F1500 X95.60000000000008 Y10.0 Z0.2999999999999998 E28.59999999999999
G1 F1500 X95.60000000000008 Y30.0 Z0.2999999999999998 E30.59999999999999
G1 F1500 X96.00000000000009 Y30.0 Z0.2999999999999998 E30.63999999999999
G1 F1500 X96.00000000000009 Y10.0 Z0.2999999999999998 E32.639999999999986
G1 F1500 X96.40000000000009 Y10.0 Z0.2999999999999998 E32.679999999999986
G1 F1500 X96.40000000000009 Y30.0 Z0.2999999999999998 E34.679999999999986
G1 F1500 X96.8000000000001 Y30.0 Z0.2999999999999998 E34.719999999999985
G1 F1500 X96.8000000000001 Y10.0 Z0.2999999999999998 E36.719999999999985
G1 F1500 X97.2000000000001 Y10.0 Z0.2999999999999998 E36.759999999999984
G1 F1500 X97.2000000000001 Y30.0 Z0.2999999999999998 E38.759999999999984
G1 F1500 X97.60000000000011 Y30.0 Z0.2999999999999998 E38.79999999999998
G1 F1500 X97.60000000000011 Y10.0 Z0.2999999999999998 E40.79999999999998
G1 F1500 X98.00000000000011 Y10.0 Z0.2999999999999998 E40.83999999999998
G1 F1500 X98.00000000000011 Y30.0 Z0.2999999999999998 E42.83999999999998
G1 F1500 X98.40000000000012 Y30.0 Z0.2999999999999998 E42.87999999999998
G1 F1500 X98.40000000000012 Y10.0 Z0.2999999999999998 E44.87999999999998
G1 F1500 X98.80000000000013 Y10.0 Z0.2999999999999998 E44.91999999999998
G1 F1500 X98.80000000000013 Y30.0 Z0.2999999999999998 E46.91999999999998
G1 F1500 X99.20000000000013 Y30.0 Z0.2999999999999998 E46.95999999999998
G1 F1500 X99.20000000000013 Y10.0 Z0.2999999999999998 E48.95999999999998
G1 F1500 X99.60000000000014 Y10.0 Z0.2999999999999998 E48.99999999999998
G1 F1500 X99.60000000000014 Y30.0 Z0.2999999999999998 E50.99999999999998
G1 F1500 X100.00000000000014 Y30.0 Z0.2999999999999998 E51.03999999999998
G1 F1500 X100.00000000000014 Y10.0 Z0.2999999999999998 E53.03999999999998
G1 F1500 X100.40000000000015 Y10.0 Z0.2999999999999998 E53.07999999999998
G1 F1500 X100.40000000000015 Y30.0 Z0.2999999999999998 E55.07999999999998
G1 F1500 X100.80000000000015 Y30.0 Z0.2999999999999998 E55.119999999999976
G1 F1500 X100.80000000000015 Y10.0 Z0.2999999999999998 E57.119999999999976
G1 F1500 X101.20000000000016 Y10.0 Z0.2999999999999998 E57.159999999999975
G1 F1500 X101.20000000000016 Y30.0 Z0.2999999999999998 E59.159999999999975
G1 F1500 X101.60000000000016 Y30.0 Z0.2999999999999998 E59.199999999999974
G1 F1500 X101.60000000000016 Y10.0 Z0.2999999999999998 E61.199999999999974
G1 F1500 X102.00000000000017 Y10.0 Z0.2999999999999998 E61.239999999999974
G1 F1500 X102.00000000000017 Y30.0 Z0.2999999999999998 E63.239999999999974
G1 F1500 X102.40000000000018 Y30.0 Z0.2999999999999998 E63.27999999999997
G1 F1500 X102.40000000000018 Y10.0 Z0.2999999999999998 E65.27999999999997
G1 F1500 X102.80000000000018 Y10.0 Z0.2999999999999998 E65.31999999999998
G1 F1500 X102.80000000000018 Y30.0 Z0.2999999999999998 E67.31999999999998
G1 F1500 X103.20000000000019 Y30.0 Z0.2999999999999998 E67.35999999999999
G1 F1500 X103.20000000000019 Y10.0 Z0.2999999999999998 E69.35999999999999
G1 F1500 X103.6000000000002 Y10.0 Z0.2999999999999998 E69.39999999999999
G1 F1500 X103.6000000000002 Y30.0 Z0.2999999999999998 E71.39999999999999
G1 F1500 X104.0000000000002 Y30.0 Z0.2999999999999998 E71.44
G1 F1500 X104.0000000000002 Y10.0 Z0.2999999999999998 E73.44
G1 F1500 X104.4000000000002 Y10.0 Z0.2999999999999998 E73.48
G1 F1500 X104.4000000000002 Y30.0 Z0.2999999999999998 E75.48
G1 F1500 X104.80000000000021 Y30.0 Z0.2999999999999998 E75.52000000000001
G1 F1500 X104.80000000000021 Y10.0 Z0.2999999999999998 E77.52000000000001
G1 F1500 X105.20000000000022 Y10.0 Z0.2999999999999998 E77.56000000000002
G1 F1500 X105.20000000000022 Y30.0 Z0.2999999999999998 E79.56000000000002
G1 F1500 X105.60000000000022 Y30.0 Z0.2999999999999998 E79.60000000000002
G1 F1500 X105.60000000000022 Y10.0 Z0.2999999999999998 E81.60000000000002
G1 F1500 X106.00000000000023 Y10.0 Z0.2999999999999998 E81.64000000000003
G1 F1500 X106.00000000000023 Y30.0 Z0.2999999999999998 E83.64000000000003
G1 F1500 X106.40000000000023 Y30.0 Z0.2999999999999998 E83.68000000000004
G1 F1500 X106.40000000000023 Y10.0 Z0.2999999999999998 E85.68000000000004
G1 F1500 X106.80000000000024 Y10.0 Z0.2999999999999998 E85.72000000000004
G1 F1500 X106.80000000000024 Y30.0 Z0.2999999999999998 E87.72000000000004
G1 F1500 X107.20000000000024 Y30.0 Z0.2999999999999998 E87.76000000000005
G1 F1500 X107.20000000000024 Y10.0 Z0.2999999999999998 E89.76000000000005
G1 F1500 X107.60000000000025 Y10.0 Z0.2999999999999998 E89.80000000000005
G1 F1500 X107.60000000000025 Y30.0 Z0.2999999999999998 E91.80000000000005
G1 F1500 X108.00000000000026 Y30.0 Z0.2999999999999998 E91.84000000000006
G1 F1500 X108.00000000000026 Y10.0 Z0.2999999999999998 E93.84000000000006
G1 F1500 X108.40000000000026 Y10.0 Z0.2999999999999998 E93.88000000000007
G1 F1500 X108.40000000000026 Y30.0 Z0.2999999999999998 E95.88000000000007
G1 F1500 X108.80000000000027 Y30.0 Z0.2999999999999998 E95.92000000000007
G1 F1500 X108.80000000000027 Y10.0 Z0.2999999999999998 E97.92000000000007
G1 F1500 X109.20000000000027 Y10.0 Z0.2999999999999998 E97.96000000000008
G1 F1500 X109.20000000000027 Y30.0 Z0.2999999999999998 E99.96000000000008
G1 F1500 X109.60000000000028 Y30.0 Z0.2999999999999998 E100.00000000000009
G1 F1500 X109.60000000000028 Y10.0 Z0.2999999999999998 E102.00000000000009
G1 F1500 X110.00000000000028 Y10.0 Z0.2999999999999998 E102.04000000000009
G1 F1500 X110.00000000000028 Y30.0 Z0.2999999999999998 E104.04000000000009
G1 F1500 X110.40000000000029 Y30.0 Z0.2999999999999998 E104.0800000000001
G1 F1500 X110.40000000000029 Y10.0 Z0.2999999999999998 E106.0800000000001
G1 F1500 X110.8000000000003 Y10.0 Z0.2999999999999998 E106.1200000000001
G1 F1500 X110.8000000000003 Y30.0 Z0.2999999999999998 E108.1200000000001
G1 F1500 X111.2000000000003 Y30.0 Z0.2999999999999998 E108.16000000000011
G1 F1500 X111.2000000000003 Y10.0 Z0.2999999999999998 E110.16000000000011
G1 F1500 X111.6000000000003 Y10.0 Z0.2999999999999998 E110.20000000000012
G1 F1500 X111.6000000000003 Y30.0 Z0.2999999999999998 E112.20000000000012
G1 F1500 X112.00000000000031 Y30.0 Z0.2999999999999998 E112.24000000000012
G1 F1500 X112.00000000000031 Y10.0 Z0.2999999999999998 E114.24000000000012
G1 F1500 X112.40000000000032 Y10.0 Z0.2999999999999998 E114.28000000000013
G1 F1500 X112.40000000000032 Y30.0 Z0.2999999999999998 E116.28000000000013
G1 F1500 X112.80000000000032 Y30.0 Z0.2999999999999998 E116.32000000000014
G1 F1500 X112.80000000000032 Y10.0 Z0.2999999999999998 E118.32000000000014
G1 F1500 X113.20000000000033 Y10.0 Z0.2999999999999998 E118.36000000000014
G1 F1500 X113.20000000000033 Y30.0 Z0.2999999999999998 E120.36000000000014
G1 F1500 X113.60000000000034 Y30.0 Z0.2999999999999998 E120.40000000000015
G1 F1500 X113.60000000000034 Y10.0 Z0.2999999999999998 E122.40000000000015
G1 F1500 X114.00000000000034 Y10.0 Z0.2999999999999998 E122.44000000000015
G1 F1500 X114.00000000000034 Y30.0 Z0.2999999999999998 E124.44000000000015
G1 F1500 X114.40000000000035 Y30.0 Z0.2999999999999998 E124.48000000000016
G1 F1500 X114.40000000000035 Y10.0 Z0.2999999999999998 E126.48000000000016
G1 F1500 X114.80000000000035 Y10.0 Z0.2999999999999998 E126.52000000000017
G1 F1500 X114.80000000000035 Y30.0 Z0.2999999999999998 E128.52000000000015
G1 F1500 X115.20000000000036 Y30.0 Z0.2999999999999998 E128.56000000000014
G1 F1500 X115.20000000000036 Y10.0 Z0.2999999999999998 E130.56000000000014
G1 F1500 X115.60000000000036 Y10.0 Z0.2999999999999998 E130.60000000000014
G1 F1500 X115.60000000000036 Y30.0 Z0.2999999999999998 E132.60000000000014
G1 F1500 X116.00000000000037 Y30.0 Z0.2999999999999998 E132.64000000000013
G1 F1500 X116.00000000000037 Y10.0 Z0.2999999999999998 E134.64000000000013
G1 F1500 X116.40000000000038 Y10.0 Z0.2999999999999998 E134.68000000000012
G1 F1500 X116.40000000000038 Y30.0 Z0.2999999999999998 E136.68000000000012
G1 F1500 X116.80000000000038 Y30.0 Z0.2999999999999998 E136.7200000000001
G1 F1500 X116.80000000000038 Y10.0 Z0.2999999999999998 E138.7200000000001
G1 F1500 X117.20000000000039 Y10.0 Z0.2999999999999998 E138.7600000000001
G1 F1500 X117.20000000000039 Y30.0 Z0.2999999999999998 E140.7600000000001
G1 F1500 X117.60000000000039 Y30.0 Z0.2999999999999998 E140.8000000000001
G1 F1500 X117.60000000000039 Y10.0 Z0.2999999999999998 E142.8000000000001
G1 F1500 X118.0000000000004 Y10.0 Z0.2999999999999998 E142.8400000000001
G1 F1500 X118.0000000000004 Y30.0 Z0.2999999999999998 E144.8400000000001
G1 F1500 X118.4000000000004 Y30.0 Z0.2999999999999998 E144.88000000000008
G1 F1500 X118.4000000000004 Y10.0 Z0.2999999999999998 E146.88000000000008
G1 F1500 X118.80000000000041 Y10.0 Z0.2999999999999998 E146.92000000000007
G1 F1500 X118.80000000000041 Y30.0 Z0.2999999999999998 E148.92000000000007
G1 F1500 X119.20000000000041 Y30.0 Z0.2999999999999998 E148.96000000000006
G1 F1500 X119.20000000000041 Y10.0 Z0.2999999999999998 E150.96000000000006
G1 F1500 X119.60000000000042 Y10.0 Z0.2999999999999998 E151.00000000000006
G1 F1500 X119.60000000000042 Y30.0 Z0.2999999999999998 E153.00000000000006
G1 F1500 X120.00000000000043 Y30.0 Z0.2999999999999998 E153.04000000000005
G1 F1500 X120.00000000000043 Y10.0 Z0.2999999999999998 E155.04000000000005
G1 F1500 X120.40000000000043 Y10.0 Z0.2999999999999998 E155.08000000000004
G1 F1500 X120.40000000000043 Y30.0 Z0.2999999999999998 E157.08000000000004
G1 F1500 X120.80000000000044 Y30.0 Z0.2999999999999998 E157.12000000000003
G1 F1500 X120.80000000000044 Y10.0 Z0.2999999999999998 E159.12000000000003
G1 F1500 X121.20000000000044 Y10.0 Z0.2999999999999998 E159.16000000000003
G1 F1500 X121.20000000000044 Y30.0 Z0.2999999999999998 E161.16000000000003
G1 F1500 X121.60000000000045 Y30.0 Z0.2999999999999998 E161.20000000000002
G1 F1500 X121.60000000000045 Y10.0 Z0.2999999999999998 E163.20000000000002
G1 F1500 X122.00000000000045 Y10.0 Z0.2999999999999998 E163.24
G1 F1500 X122.00000000000045 Y30.0 Z0.2999999999999998 E165.24
G1 F1500 X122.40000000000046 Y30.0 Z0.2999999999999998 E165.28
G1 F1500 X122.40000000000046 Y10.0 Z0.2999999999999998 E167.28
G1 F1500 X122.80000000000047 Y10.0 Z0.2999999999999998 E167.32
G1 F1500 X122.80000000000047 Y30.0 Z0.2999999999999998 E169.32
G1 F1500 X123.20000000000047 Y30.0 Z0.2999999999999998 E169.35999999999999
G1 F1500 X123.20000000000047 Y10.0 Z0.2999999999999998 E171.35999999999999
G1 F1500 X123.60000000000048 Y10.0 Z0.2999999999999998 E171.39999999999998
G1 F1500 X123.60000000000048 Y30.0 Z0.2999999999999998 E173.39999999999998
G1 F1500 X124.00000000000048 Y30.0 Z0.2999999999999998 E173.43999999999997
G1 F1500 X124.00000000000048 Y10.0 Z0.2999999999999998 E175.43999999999997
G1 F1500 X124.40000000000049 Y10.0 Z0.2999999999999998 E175.47999999999996
G1 F1500 X124.40000000000049 Y30.0 Z0.2999999999999998 E177.47999999999996
G1 F1500 X124.8000000000005 Y30.0 Z0.2999999999999998 E177.51999999999995
G1 F1500 X124.8000000000005 Y10.0 Z0.2999999999999998 E179.51999999999995
G1 F1500 X125.2000000000005 Y10.0 Z0.2999999999999998 E179.55999999999995
G1 F1500 X125.2000000000005 Y30.0 Z0.2999999999999998 E181.55999999999995
G1 F1500 X125.6000000000005 Y30.0 Z0.2999999999999998 E181.59999999999994
G1 F1500 X125.6000000000005 Y10.0 Z0.2999999999999998 E183.59999999999994
G1 F1500 X126.00000000000051 Y10.0 Z0.2999999999999998 E183.63999999999993
G1 F1500 X126.00000000000051 Y30.0 Z0.2999999999999998 E185.63999999999993
G1 F1500 X126.40000000000052 Y30.0 Z0.2999999999999998 E185.67999999999992
G1 F1500 X126.40000000000052 Y10.0 Z0.2999999999999998 E187.67999999999992
G1 F1500 X126.80000000000052 Y10.0 Z0.2999999999999998 E187.7199999999999
G1 F1500 X126.80000000000052 Y30.0 Z0.2999999999999998 E189.7199999999999
G1 F1500 X127.20000000000053 Y30.0 Z0.2999999999999998 E189.7599999999999
G1 F1500 X127.20000000000053 Y10.0 Z0.2999999999999998 E191.7599999999999
G1 F1500 X127.60000000000053 Y10.0 Z0.2999999999999998 E191.7999999999999
G1 F1500 X127.60000000000053 Y30.0 Z0.2999999999999998 E193.7999999999999
G1 F1500 X128.00000000000054 Y30.0 Z0.2999999999999998 E193.8399999999999
G1 F1500 X128.00000000000054 Y10.0 Z0.2999999999999998 E195.8399999999999
G1 F1500 X128.40000000000055 Y10.0 Z0.2999999999999998 E195.87999999999988
G1 F1500 X128.40000000000055 Y30.0 Z0.2999999999999998 E197.87999999999988
G1 F1500 X128.80000000000055 Y30.0 Z0.2999999999999998 E197.91999999999987
G1 F1500 X128.80000000000055 Y10.0 Z0.2999999999999998 E199.91999999999987
G1 F1500 X129.20000000000056 Y10.0 Z0.2999999999999998 E199.95999999999987
G1 F1500 X129.20000000000056 Y30.0 Z0.2999999999999998 E201.95999999999987
G1 F1500 X129.60000000000056 Y30.0 Z0.2999999999999998 E201.99999999999986
G1 F1500 X129.60000000000056 Y10.0 Z0.2999999999999998 E203.99999999999986
G1 F1500 X130.00000000000057 Y10.0 Z0.2999999999999998 E204.03999999999985
G1 F1500 X130.00000000000057 Y30.0 Z0.2999999999999998 E206.03999999999985
G1 F1500 X130.40000000000057 Y30.0 Z0.2999999999999998 E206.07999999999984
G1 F1500 X130.40000000000057 Y10.0 Z0.2999999999999998 E208.07999999999984
G1 F1500 X130.80000000000058 Y10.0 Z0.2999999999999998 E208.11999999999983
G1 F1500 X130.80000000000058 Y30.0 Z0.2999999999999998 E210.11999999999983
G1 F1500 X131.20000000000059 Y30.0 Z0.2999999999999998 E210.15999999999983
G1 F1500 X131.20000000000059 Y10.0 Z0.2999999999999998 E212.15999999999983
G1 F1500 X131.6000000000006 Y10.0 Z0.2999999999999998 E212.19999999999982
G1 F1500 X131.6000000000006 Y30.0 Z0.2999999999999998 E214.19999999999982
G1 F1500 X132.0000000000006 Y30.0 Z0.2999999999999998 E214.2399999999998
G1 F1500 X132.0000000000006 Y10.0 Z0.2999999999999998 E216.2399999999998
